; generated by Slic3r 1.1.7 on 2014-12-11 at 08:57:21

; perimeters extrusion width = 0.40mm
; infill extrusion width = 1.28mm
; solid infill extrusion width = 0.68mm
; top infill extrusion width = 0.68mm

G21 ; set units to millimeters
M190 S90 ; wait for bed temperature to be reached
M104 S230 ; set temperature
G28 ; home all axes
G1 Z5 F5000 ; lift nozzle
M109 S230 ; wait for temperature to be reached
G90 ; use absolute coordinates
G92 E0
M82 ; use absolute distances for extrusion
G1 F900.000 E-1.00000
G92 E0
G1 Z0.350 F6000.000
G1 X80.673 Y66.285 F6000.000
G1 E1.00000 F900.000
G1 X83.125 Y64.245 E1.13117 F1080.000
G1 X86.006 Y62.876 E1.26233
G1 X90.000 Y62.235 E1.42871
G1 X100.000 Y62.235 E1.83997
G1 X103.164 Y62.634 E1.97114
G1 X106.131 Y63.804 E2.10231 F1080.000
G1 X108.715 Y65.673 E2.23347
G1 X110.755 Y68.125 E2.36464
G1 X112.124 Y71.006 E2.49581
G1 X112.765 Y75.000 E2.66218
G1 X112.765 Y95.000 E3.48471
G1 X112.366 Y98.164 E3.61588
G1 X111.196 Y101.131 E3.74704
G1 X109.327 Y103.715 E3.87821
G1 X106.875 Y105.755 E4.00938
G1 X103.994 Y107.124 E4.14054
G1 X100.000 Y107.765 E4.30692
G1 X90.000 Y107.765 E4.71818
G1 X86.836 Y107.366 E4.84935
G1 X83.869 Y106.196 E4.98052
G1 X81.285 Y104.327 E5.11168
G1 X79.245 Y101.875 E5.24285
G1 X77.876 Y98.994 E5.37402
G1 X77.235 Y95.000 E5.54039
G1 X77.235 Y75.000 E6.36292
G1 X77.634 Y71.836 E6.49409
G1 X78.804 Y68.869 E6.62525
G1 X80.638 Y66.333 E6.75395
G1 F900.000 E5.75395
G92 E0
G1 X98.050 Y93.050 F6000.000
G1 E1.00000 F900.000
G1 X91.950 Y93.050 E1.25089 F540.000
G1 X91.950 Y76.950 E1.91305
G1 X98.050 Y76.950 E2.16394
G1 X98.050 Y92.990 E2.82362
G1 X98.815 Y93.815 F6000.000
G1 X91.185 Y93.815 E3.13743 F540.000
G1 X91.185 Y76.185 E3.86250
G1 X98.815 Y76.185 E4.17630
G1 X98.815 Y93.755 E4.89890
G1 X99.580 Y94.580 F6000.000
G1 X90.420 Y94.580 E5.27562 F162.000
G1 X90.420 Y75.420 E6.06361
G1 X99.580 Y75.420 E6.44033
G1 X99.580 Y94.520 E7.22584
G1 X99.234 Y94.380 F6000.000
G1 X97.324 Y92.324 F6000.000
G1 X92.676 Y92.324 E7.41697 F900.000
G1 X92.676 Y77.676 E8.01935
G1 X97.324 Y77.676 E8.21048
G1 X97.324 Y92.264 E8.81040
G1 X96.492 Y91.492 F6000.000
G1 X93.508 Y91.492 E8.93309 F900.000
G1 X93.508 Y78.508 E9.46706
G1 X96.492 Y78.508 E9.58975
G1 X96.492 Y91.432 E10.12125
G1 X95.660 Y90.660 F6000.000
G1 X94.340 Y90.660 E10.17552 F900.000
G1 X94.340 Y79.340 E10.64105
G1 X95.660 Y79.340 E10.69532
G1 X95.660 Y90.600 E11.15839
G1 F900.000 E10.15839
G92 E0
G1 Z0.450 F6000.000
G1 X99.000 Y94.000 F6000.000
G1 E1.00000 F900.000
G1 X91.000 Y94.000 E1.04916 F1800.000
G1 X91.000 Y76.000 E1.15977
G1 X99.000 Y76.000 E1.20893
G1 X99.000 Y93.940 E1.31917
G1 X99.400 Y94.400 F6000.000
G1 X90.600 Y94.400 E1.37324 F1800.000
G1 X90.600 Y75.600 E1.48877
G1 X99.400 Y75.600 E1.54284
G1 X99.400 Y94.340 E1.65800
G1 X99.800 Y94.800 F6000.000
G1 X90.200 Y94.800 E1.71699 F540.000
G1 X90.200 Y75.200 E1.83743
G1 X99.800 Y75.200 E1.89642
G1 X99.800 Y94.740 E2.01649
G1 X99.454 Y94.600 F6000.000
G1 X98.537 Y93.497 F6000.000
G1 X98.497 Y93.537 E2.01706 F3000.000
G1 X97.535 Y93.537 E2.02680
G1 X98.537 Y92.535 E2.04115
G1 X98.537 Y91.572 E2.05089
G1 X96.572 Y93.537 E2.07901
G1 X95.609 Y93.537 E2.08875
G1 X98.537 Y90.609 E2.13065
G1 X98.537 Y89.646 E2.14039
G1 X94.646 Y93.537 E2.19606
G1 X93.683 Y93.537 E2.20580
G1 X98.537 Y88.683 E2.27524
G1 X98.537 Y87.721 E2.28498
G1 X92.721 Y93.537 E2.36820
G1 X91.758 Y93.537 E2.37794
G1 X98.537 Y86.758 E2.47493
G1 X98.537 Y85.795 E2.48467
G1 X91.463 Y92.870 E2.58589
G1 X91.463 Y91.907 E2.59563
G1 X98.537 Y84.832 E2.69684
G1 X98.537 Y83.870 E2.70658
G1 X91.463 Y90.944 E2.80780
G1 X91.463 Y89.981 E2.81754
G1 X98.537 Y82.907 E2.91876
G1 X98.537 Y81.944 E2.92850
G1 X91.463 Y89.019 E3.02971
G1 X91.463 Y88.056 E3.03945
G1 X98.537 Y80.981 E3.14067
G1 X98.537 Y80.019 E3.15041
G1 X91.463 Y87.093 E3.25163
G1 X91.463 Y86.130 E3.26137
G1 X98.537 Y79.056 E3.36258
G1 X98.537 Y78.093 E3.37232
G1 X91.463 Y85.168 E3.47354
G1 X91.463 Y84.205 E3.48328
G1 X98.537 Y77.130 E3.58450
G1 X98.242 Y76.463 E3.59188
G1 X91.463 Y83.242 E3.68887
G1 X91.463 Y82.279 E3.69861
G1 X97.279 Y76.463 E3.78183
G1 X96.317 Y76.463 E3.79157
G1 X91.463 Y81.317 E3.86102
G1 X91.463 Y80.354 E3.87076
G1 X95.354 Y76.463 E3.92643
G1 X94.391 Y76.463 E3.93617
G1 X91.463 Y79.391 E3.97806
G1 X91.463 Y78.428 E3.98780
G1 X93.428 Y76.463 E4.01592
G1 X92.465 Y76.463 E4.02566
G1 X91.463 Y77.465 E4.04001
G1 X91.463 Y76.503 E4.04975
G1 X91.503 Y76.463 E4.05032
G1 F900.000 E3.05032
G92 E0
G1 Z0.550 F6000.000
G1 X99.000 Y94.000 F6000.000
G1 E1.00000 F900.000
G1 X91.000 Y94.000 E1.04916 F1800.000
G1 X91.000 Y76.000 E1.15977
G1 X99.000 Y76.000 E1.20893
G1 X99.000 Y93.940 E1.31917
G1 X99.400 Y94.400 F6000.000
G1 X90.600 Y94.400 E1.37324 F1800.000
G1 X90.600 Y75.600 E1.48877
G1 X99.400 Y75.600 E1.54284
G1 X99.400 Y94.340 E1.65800
G1 X99.800 Y94.800 F6000.000
G1 X90.200 Y94.800 E1.71699 F540.000
G1 X90.200 Y75.200 E1.83743
G1 X99.800 Y75.200 E1.89642
G1 X99.800 Y94.740 E2.01649
G1 X99.454 Y94.600 F6000.000
G1 X91.463 Y93.497 F6000.000
G1 X91.503 Y93.537 E2.01706 F3000.000
G1 X92.465 Y93.537 E2.02680
G1 X91.463 Y92.535 E2.04115
G1 X91.463 Y91.572 E2.05089
G1 X93.428 Y93.537 E2.07901
G1 X94.391 Y93.537 E2.08875
G1 X91.463 Y90.609 E2.13065
G1 X91.463 Y89.646 E2.14039
G1 X95.354 Y93.537 E2.19606
G1 X96.317 Y93.537 E2.20580
G1 X91.463 Y88.683 E2.27524
G1 X91.463 Y87.721 E2.28498
G1 X97.279 Y93.537 E2.36820
G1 X98.242 Y93.537 E2.37794
G1 X91.463 Y86.758 E2.47493
G1 X91.463 Y85.795 E2.48467
G1 X98.537 Y92.870 E2.58589
G1 X98.537 Y91.907 E2.59563
G1 X91.463 Y84.832 E2.69684
G1 X91.463 Y83.870 E2.70658
G1 X98.537 Y90.944 E2.80780
G1 X98.537 Y89.981 E2.81754
G1 X91.463 Y82.907 E2.91876
G1 X91.463 Y81.944 E2.92850
G1 X98.537 Y89.019 E3.02971
G1 X98.537 Y88.056 E3.03945
G1 X91.463 Y80.981 E3.14067
G1 X91.463 Y80.019 E3.15041
G1 X98.537 Y87.093 E3.25163
G1 X98.537 Y86.130 E3.26137
G1 X91.463 Y79.056 E3.36258
G1 X91.463 Y78.093 E3.37232
G1 X98.537 Y85.168 E3.47354
G1 X98.537 Y84.205 E3.48328
G1 X91.463 Y77.130 E3.58450
G1 X91.758 Y76.463 E3.59188
G1 X98.537 Y83.242 E3.68887
G1 X98.537 Y82.279 E3.69861
G1 X92.721 Y76.463 E3.78183
G1 X93.683 Y76.463 E3.79157
G1 X98.537 Y81.317 E3.86102
G1 X98.537 Y80.354 E3.87076
G1 X94.646 Y76.463 E3.92643
G1 X95.609 Y76.463 E3.93617
G1 X98.537 Y79.391 E3.97806
G1 X98.537 Y78.428 E3.98780
G1 X96.572 Y76.463 E4.01592
G1 X97.535 Y76.463 E4.02566
G1 X98.537 Y77.465 E4.04001
G1 X98.537 Y76.503 E4.04975
G1 X98.497 Y76.463 E4.05032
G1 F900.000 E3.05032
G92 E0
G1 Z0.650 F6000.000
G1 X99.000 Y94.000 F6000.000
G1 E1.00000 F900.000
G1 X91.000 Y94.000 E1.04916 F1800.000
G1 X91.000 Y76.000 E1.15977
G1 X99.000 Y76.000 E1.20893
G1 X99.000 Y93.940 E1.31917
G1 X99.400 Y94.400 F6000.000
G1 X90.600 Y94.400 E1.37324 F1800.000
G1 X90.600 Y75.600 E1.48877
G1 X99.400 Y75.600 E1.54284
G1 X99.400 Y94.340 E1.65800
G1 X99.800 Y94.800 F6000.000
G1 X90.200 Y94.800 E1.71699 F540.000
G1 X90.200 Y75.200 E1.83743
G1 X99.800 Y75.200 E1.89642
G1 X99.800 Y94.740 E2.01649
G1 X99.454 Y94.600 F6000.000
G1 X97.420 Y93.517 F6000.000
G1 X97.722 Y93.215 E2.02473 F3000.000
G1 X97.158 Y91.113 E2.06675
G1 X98.517 Y89.754 E2.10386
G1 X98.517 Y87.977 E2.13816
G1 X96.270 Y90.224 E2.19953
G1 X94.167 Y89.661 E2.24155
G1 X91.483 Y92.345 E2.31484
G1 X91.483 Y90.568 F6000.000
G1 X93.279 Y88.772 E2.36387 F3000.000
G1 X92.715 Y86.670 E2.40588
G1 X95.793 Y83.592 E2.48992
G1 X97.896 Y84.155 E2.53194
G1 X98.517 Y83.534 E2.54890
G1 X98.517 Y77.817 E2.65927
G1 X97.420 Y77.523 E2.68120
G1 X94.342 Y80.601 E2.76524
G1 X94.905 Y82.703 E2.80726
G1 X91.827 Y85.781 E2.89129
G1 X91.483 Y85.689 E2.89817
G1 X91.483 Y79.184 F6000.000
G1 X93.453 Y79.712 E2.93755 F3000.000
G1 X96.531 Y76.634 E3.02158
G1 X96.490 Y76.483 E3.02461
G1 F900.000 E2.02461
G92 E0
G1 Z0.750 F6000.000
G1 X99.000 Y94.000 F6000.000
G1 E1.00000 F900.000
G1 X91.000 Y94.000 E1.04916 F1800.000
G1 X91.000 Y76.000 E1.15977
G1 X99.000 Y76.000 E1.20893
G1 X99.000 Y93.940 E1.31917
G1 X99.400 Y94.400 F6000.000
G1 X90.600 Y94.400 E1.37324 F1800.000
G1 X90.600 Y75.600 E1.48877
G1 X99.400 Y75.600 E1.54284
G1 X99.400 Y94.340 E1.65800
G1 X99.800 Y94.800 F6000.000
G1 X90.200 Y94.800 E1.71699 F540.000
G1 X90.200 Y75.200 E1.83743
G1 X99.800 Y75.200 E1.89642
G1 X99.800 Y94.740 E2.01649
G1 X99.454 Y94.600 F6000.000
G1 X91.483 Y91.781 F6000.000
G1 X91.948 Y93.517 E2.05120 F3000.000
G1 X91.483 Y91.457 E2.09198
G1 X92.953 Y89.986 E2.13213
G1 X91.827 Y85.781 E2.21616
G1 X91.483 Y85.689 E2.22304
G1 X91.483 Y79.184 F6000.000
G1 X93.453 Y79.712 E2.26242 F3000.000
G1 X94.580 Y83.917 E2.34645
G1 X93.041 Y85.456 E2.38847
G1 X94.167 Y89.661 E2.47251
G1 X96.270 Y90.224 E2.51452
G1 X97.152 Y93.517 E2.58034
G1 X98.453 Y93.517 E2.60545
G1 X97.483 Y89.899 E2.67776
G1 X98.517 Y88.865 E2.70599
G1 X98.517 Y86.475 E2.75214
G1 X97.896 Y84.155 E2.79849
G1 X95.793 Y83.592 E2.84051
G1 X94.667 Y79.387 E2.92455
G1 X96.206 Y77.848 E2.96656
G1 X95.840 Y76.483 E2.99385
G1 X97.141 Y76.483 E3.01897
G1 X97.420 Y77.523 E3.03975
G1 X98.517 Y77.817 E3.06169
G1 F900.000 E2.06169
G92 E0
G1 Z0.850 F6000.000
G1 X99.000 Y94.000 F6000.000
G1 E1.00000 F900.000
G1 X91.000 Y94.000 E1.04916 F1800.000
G1 X91.000 Y76.000 E1.15977
G1 X99.000 Y76.000 E1.20893
G1 X99.000 Y93.940 E1.31917
G1 X99.400 Y94.400 F6000.000
G1 X90.600 Y94.400 E1.37324 F1800.000
G1 X90.600 Y75.600 E1.48877
G1 X99.400 Y75.600 E1.54284
G1 X99.400 Y94.340 E1.65800
G1 X99.800 Y94.800 F6000.000
G1 X90.200 Y94.800 E1.71699 F540.000
G1 X90.200 Y75.200 E1.83743
G1 X99.800 Y75.200 E1.89642
G1 X99.800 Y94.740 E2.01649
G1 X99.454 Y94.600 F6000.000
G1 X91.483 Y91.457 F6000.000
G1 X92.953 Y89.986 E2.05664 F3000.000
G1 X97.158 Y91.113 E2.14068
G1 X97.722 Y93.215 E2.18270
G1 X98.517 Y93.429 E2.19860
G1 X98.517 Y88.865 E2.28669
G1 X97.483 Y89.899 E2.31492
G1 X93.279 Y88.772 E2.39895
G1 X92.715 Y86.670 E2.44097
G1 X91.483 Y86.340 E2.46560
G1 X91.483 Y85.039 E2.49072
G1 X93.041 Y85.456 E2.52185
G1 X94.580 Y83.917 E2.56387
G1 X98.517 Y84.972 E2.64257
G1 X98.517 Y83.671 E2.66768
G1 X94.905 Y82.703 E2.73988
G1 X94.342 Y80.601 E2.78190
G1 X91.483 Y79.835 E2.83903
G1 X91.483 Y78.534 E2.86415
G1 X94.667 Y79.387 E2.92778
G1 X96.206 Y77.848 E2.96980
G1 X98.517 Y78.467 E3.01600
G1 X98.517 Y77.166 E3.04111
G1 X96.531 Y76.634 E3.08081
G1 X96.490 Y76.483 E3.08384
G1 F900.000 E2.08384
G92 E0
G1 Z0.950 F6000.000
G1 X99.000 Y94.000 F6000.000
G1 E1.00000 F900.000
G1 X91.000 Y94.000 E1.04916 F1800.000
G1 X91.000 Y76.000 E1.15977
G1 X99.000 Y76.000 E1.20893
G1 X99.000 Y93.940 E1.31917
G1 X99.400 Y94.400 F6000.000
G1 X90.600 Y94.400 E1.37324 F1800.000
G1 X90.600 Y75.600 E1.48877
G1 X99.400 Y75.600 E1.54284
G1 X99.400 Y94.340 E1.65800
G1 X99.800 Y94.800 F6000.000
G1 X90.200 Y94.800 E1.71699 F540.000
G1 X90.200 Y75.200 E1.83743
G1 X99.800 Y75.200 E1.89642
G1 X99.800 Y94.740 E2.01649
G1 X99.454 Y94.600 F6000.000
G1 X97.420 Y93.517 F6000.000
G1 X97.722 Y93.215 E2.02473 F3000.000
G1 X97.158 Y91.113 E2.06675
G1 X98.517 Y89.754 E2.10386
G1 X98.517 Y87.977 E2.13816
G1 X96.270 Y90.224 E2.19953
G1 X94.167 Y89.661 E2.24155
G1 X91.483 Y92.345 E2.31484
G1 X91.483 Y90.568 F6000.000
G1 X93.279 Y88.772 E2.36387 F3000.000
G1 X92.715 Y86.670 E2.40588
G1 X95.793 Y83.592 E2.48992
G1 X97.896 Y84.155 E2.53194
G1 X98.517 Y83.534 E2.54890
G1 X98.517 Y77.817 E2.65927
G1 X97.420 Y77.523 E2.68120
G1 X94.342 Y80.601 E2.76524
G1 X94.905 Y82.703 E2.80726
G1 X91.827 Y85.781 E2.89129
G1 X91.483 Y85.689 E2.89817
G1 X91.483 Y79.184 F6000.000
G1 X93.453 Y79.712 E2.93755 F3000.000
G1 X96.531 Y76.634 E3.02158
G1 X96.490 Y76.483 E3.02461
G1 F900.000 E2.02461
G92 E0
G1 Z1.050 F6000.000
G1 X99.000 Y94.000 F6000.000
G1 E1.00000 F900.000
G1 X91.000 Y94.000 E1.04916 F1800.000
G1 X91.000 Y76.000 E1.15977
G1 X99.000 Y76.000 E1.20893
G1 X99.000 Y93.940 E1.31917
G1 X99.400 Y94.400 F6000.000
G1 X90.600 Y94.400 E1.37324 F1800.000
G1 X90.600 Y75.600 E1.48877
G1 X99.400 Y75.600 E1.54284
G1 X99.400 Y94.340 E1.65800
G1 X99.800 Y94.800 F6000.000
G1 X90.200 Y94.800 E1.71699 F540.000
G1 X90.200 Y75.200 E1.83743
G1 X99.800 Y75.200 E1.89642
G1 X99.800 Y94.740 E2.01649
G1 X99.454 Y94.600 F6000.000
G1 X91.483 Y91.781 F6000.000
G1 X91.948 Y93.517 E2.05120 F3000.000
G1 X91.483 Y91.457 E2.09198
G1 X92.953 Y89.986 E2.13213
G1 X91.827 Y85.781 E2.21616
G1 X91.483 Y85.689 E2.22304
G1 X91.483 Y79.184 F6000.000
G1 X93.453 Y79.712 E2.26242 F3000.000
G1 X94.580 Y83.917 E2.34645
G1 X93.041 Y85.456 E2.38847
G1 X94.167 Y89.661 E2.47251
G1 X96.270 Y90.224 E2.51452
G1 X97.152 Y93.517 E2.58034
G1 X98.453 Y93.517 E2.60545
G1 X97.483 Y89.899 E2.67776
G1 X98.517 Y88.865 E2.70599
G1 X98.517 Y86.475 E2.75214
G1 X97.896 Y84.155 E2.79849
G1 X95.793 Y83.592 E2.84051
G1 X94.667 Y79.387 E2.92455
G1 X96.206 Y77.848 E2.96656
G1 X95.840 Y76.483 E2.99385
G1 X97.141 Y76.483 E3.01897
G1 X97.420 Y77.523 E3.03975
G1 X98.517 Y77.817 E3.06169
G1 F900.000 E2.06169
G92 E0
G1 Z1.150 F6000.000
G1 X99.000 Y94.000 F6000.000
G1 E1.00000 F900.000
G1 X91.000 Y94.000 E1.04916 F1800.000
G1 X91.000 Y76.000 E1.15977
G1 X99.000 Y76.000 E1.20893
G1 X99.000 Y93.940 E1.31917
G1 X99.400 Y94.400 F6000.000
G1 X90.600 Y94.400 E1.37324 F1800.000
G1 X90.600 Y75.600 E1.48877
G1 X99.400 Y75.600 E1.54284
G1 X99.400 Y94.340 E1.65800
G1 X99.800 Y94.800 F6000.000
G1 X90.200 Y94.800 E1.71699 F540.000
G1 X90.200 Y75.200 E1.83743
G1 X99.800 Y75.200 E1.89642
G1 X99.800 Y94.740 E2.01649
G1 X99.454 Y94.600 F6000.000
G1 X91.483 Y91.457 F6000.000
G1 X92.953 Y89.986 E2.05664 F3000.000
G1 X97.158 Y91.113 E2.14068
G1 X97.722 Y93.215 E2.18270
G1 X98.517 Y93.429 E2.19860
G1 X98.517 Y88.865 E2.28669
G1 X97.483 Y89.899 E2.31492
G1 X93.279 Y88.772 E2.39895
G1 X92.715 Y86.670 E2.44097
G1 X91.483 Y86.340 E2.46560
G1 X91.483 Y85.039 E2.49072
G1 X93.041 Y85.456 E2.52185
G1 X94.580 Y83.917 E2.56387
G1 X98.517 Y84.972 E2.64257
G1 X98.517 Y83.671 E2.66768
G1 X94.905 Y82.703 E2.73988
G1 X94.342 Y80.601 E2.78190
G1 X91.483 Y79.835 E2.83903
G1 X91.483 Y78.534 E2.86415
G1 X94.667 Y79.387 E2.92778
G1 X96.206 Y77.848 E2.96980
G1 X98.517 Y78.467 E3.01600
G1 X98.517 Y77.166 E3.04111
G1 X96.531 Y76.634 E3.08081
G1 X96.490 Y76.483 E3.08384
G1 F900.000 E2.08384
G92 E0
G1 Z1.250 F6000.000
G1 X99.000 Y94.000 F6000.000
G1 E1.00000 F900.000
G1 X91.000 Y94.000 E1.04916 F1800.000
G1 X91.000 Y76.000 E1.15977
G1 X99.000 Y76.000 E1.20893
G1 X99.000 Y93.940 E1.31917
G1 X99.400 Y94.400 F6000.000
G1 X90.600 Y94.400 E1.37324 F1800.000
G1 X90.600 Y75.600 E1.48877
G1 X99.400 Y75.600 E1.54284
G1 X99.400 Y94.340 E1.65800
G1 X99.800 Y94.800 F6000.000
G1 X90.200 Y94.800 E1.71699 F540.000
G1 X90.200 Y75.200 E1.83743
G1 X99.800 Y75.200 E1.89642
G1 X99.800 Y94.740 E2.01649
G1 X99.454 Y94.600 F6000.000
G1 X97.420 Y93.517 F6000.000
G1 X97.722 Y93.215 E2.02473 F3000.000
G1 X97.158 Y91.113 E2.06675
G1 X98.517 Y89.754 E2.10386
G1 X98.517 Y87.977 E2.13816
G1 X96.270 Y90.224 E2.19953
G1 X94.167 Y89.661 E2.24155
G1 X91.483 Y92.345 E2.31484
G1 X91.483 Y90.568 F6000.000
G1 X93.279 Y88.772 E2.36387 F3000.000
G1 X92.715 Y86.670 E2.40588
G1 X95.793 Y83.592 E2.48992
G1 X97.896 Y84.155 E2.53194
G1 X98.517 Y83.534 E2.54890
G1 X98.517 Y77.817 E2.65927
G1 X97.420 Y77.523 E2.68120
G1 X94.342 Y80.601 E2.76524
G1 X94.905 Y82.703 E2.80726
G1 X91.827 Y85.781 E2.89129
G1 X91.483 Y85.689 E2.89817
G1 X91.483 Y79.184 F6000.000
G1 X93.453 Y79.712 E2.93755 F3000.000
G1 X96.531 Y76.634 E3.02158
G1 X96.490 Y76.483 E3.02461
G1 F900.000 E2.02461
G92 E0
G1 Z1.350 F6000.000
G1 X99.000 Y94.000 F6000.000
G1 E1.00000 F900.000
G1 X91.000 Y94.000 E1.04916 F1800.000
G1 X91.000 Y76.000 E1.15977
G1 X99.000 Y76.000 E1.20893
G1 X99.000 Y93.940 E1.31917
G1 X99.400 Y94.400 F6000.000
G1 X90.600 Y94.400 E1.37324 F1800.000
G1 X90.600 Y75.600 E1.48877
G1 X99.400 Y75.600 E1.54284
G1 X99.400 Y94.340 E1.65800
G1 X99.800 Y94.800 F6000.000
G1 X90.200 Y94.800 E1.71699 F540.000
G1 X90.200 Y75.200 E1.83743
G1 X99.800 Y75.200 E1.89642
G1 X99.800 Y94.740 E2.01649
G1 X99.454 Y94.600 F6000.000
G1 X91.483 Y91.781 F6000.000
G1 X91.948 Y93.517 E2.05120 F3000.000
G1 X91.483 Y91.457 E2.09198
G1 X92.953 Y89.986 E2.13213
G1 X91.827 Y85.781 E2.21616
G1 X91.483 Y85.689 E2.22304
