; generated by Slic3r 1.1.7 on 2014-12-11 at 09:23:12

; perimeters extrusion width = 0.40mm
; infill extrusion width = 1.28mm
; solid infill extrusion width = 0.68mm
; top infill extrusion width = 0.68mm

G21 ; set units to millimeters
M190 S90 ; wait for bed temperature to be reached
M104 S230 ; set temperature
G28 ; home all axes
G1 Z5 F5000 ; lift nozzle
M109 S230 ; wait for temperature to be reached
G90 ; use absolute coordinates
G92 E0
M82 ; use absolute distances for extrusion
G1 F900.000 E-1.00000
G92 E0
G1 Z0.350 F6000.000
G1 X65.673 Y56.285 F6000.000
G1 E1.00000 F900.000
G1 X68.125 Y54.245 E1.13117 F1080.000
G1 X71.006 Y52.876 E1.26233
G1 X75.000 Y52.235 E1.42871
G1 X115.000 Y52.235 E3.07377
G1 X118.164 Y52.634 E3.20494
G1 X121.131 Y53.804 E3.33610 F1080.000
G1 X123.715 Y55.673 E3.46727
G1 X125.755 Y58.125 E3.59844
G1 X127.124 Y61.006 E3.72960
G1 X127.765 Y65.000 E3.89598
G1 X127.765 Y105.000 E5.54104
G1 X127.366 Y108.164 E5.67220
G1 X126.196 Y111.131 E5.80337
G1 X124.327 Y113.715 E5.93454
G1 X121.875 Y115.755 E6.06570
G1 X118.994 Y117.124 E6.19687
G1 X115.000 Y117.765 E6.36324
G1 X75.000 Y117.765 E8.00831
G1 X71.836 Y117.366 E8.13947
G1 X68.869 Y116.196 E8.27064
G1 X66.285 Y114.327 E8.40181
G1 X64.245 Y111.875 E8.53297
G1 X62.876 Y108.994 E8.66414
G1 X62.235 Y105.000 E8.83051
G1 X62.235 Y65.000 E10.47557
G1 X62.634 Y61.836 E10.60674
G1 X63.804 Y58.869 E10.73791
G1 X65.638 Y56.333 E10.86661
G1 F900.000 E9.86661
G92 E0
G1 X101.950 Y91.950 F6000.000
G1 E1.00000 F900.000
G1 X88.050 Y91.950 E1.57164 F540.000
G1 X88.050 Y78.050 E2.14328
G1 X101.950 Y78.050 E2.71492
G1 X101.950 Y91.890 E3.28409
G1 X101.185 Y91.185 F6000.000
G1 X88.815 Y91.185 E3.79282 F540.000
G1 X88.815 Y78.815 E4.30155
G1 X101.185 Y78.815 E4.81027
G1 X101.185 Y91.125 E5.31653
G1 X100.420 Y90.420 F6000.000
G1 X89.580 Y90.420 E5.76234 F162.000
G1 X89.580 Y79.580 E6.20815
G1 X100.420 Y79.580 E6.65397
G1 X100.420 Y90.360 E7.09731
G1 X100.420 Y90.820 F6000.000
G1 X113.050 Y103.050 F6000.000
G1 X76.950 Y103.050 E8.58200 F540.000
G1 X76.950 Y66.950 E10.06668
G1 X113.050 Y66.950 E11.55137
G1 X113.050 Y102.990 E13.03359
G1 X113.815 Y103.815 F6000.000
G1 X76.185 Y103.815 E14.58119 F540.000
G1 X76.185 Y66.185 E16.12879
G1 X113.815 Y66.185 E17.67639
G1 X113.815 Y103.755 E19.22152
G1 X114.580 Y104.580 F6000.000
G1 X75.420 Y104.580 E20.83203 F162.000
G1 X75.420 Y65.420 E22.44255
G1 X114.580 Y65.420 E24.05306
G1 X114.580 Y104.520 E25.66111
G1 X114.234 Y104.380 F6000.000
G1 X112.324 Y102.324 F6000.000
G1 X77.676 Y102.324 E27.08603 F900.000
G1 X77.676 Y67.676 E28.51095
G1 X112.324 Y67.676 E29.93587
G1 X112.324 Y102.264 E31.35832
G1 X111.546 Y101.546 F6000.000
G1 X78.454 Y101.546 E32.71928 F900.000
G1 X78.454 Y68.454 E34.08024
G1 X111.546 Y68.454 E35.44120
G1 X111.546 Y101.486 E36.79969
G1 X110.768 Y100.768 F6000.000
G1 X79.232 Y100.768 E38.09669 F900.000
G1 X79.232 Y69.232 E39.39369
G1 X110.768 Y69.232 E40.69069
G1 X110.768 Y100.708 E41.98523
G1 X109.991 Y99.991 F6000.000
G1 X80.009 Y99.991 E43.21827 F900.000
G1 X80.009 Y70.009 E44.45131
G1 X109.991 Y70.009 E45.68435
G1 X109.991 Y99.931 E46.91493
G1 X109.213 Y99.213 F6000.000
G1 X80.787 Y99.213 E48.08401 F900.000
G1 X80.787 Y70.787 E49.25309
G1 X109.213 Y70.787 E50.42218
G1 X109.213 Y99.153 E51.58879
G1 X108.436 Y98.436 F6000.000
G1 X81.564 Y98.436 E52.69392 F900.000
G1 X81.564 Y71.564 E53.79904
G1 X108.436 Y71.564 E54.90417
G1 X108.436 Y98.376 E56.00682
G1 X106.564 Y96.564 F6000.000
G1 X83.436 Y96.564 E56.95803 F900.000
G1 X83.436 Y73.436 E57.90923
G1 X106.564 Y73.436 E58.86043
G1 X106.564 Y96.504 E59.80916
G1 X105.787 Y95.787 F6000.000
G1 X84.213 Y95.787 E60.69641 F900.000
G1 X84.213 Y74.213 E61.58365
G1 X105.787 Y74.213 E62.47089
G1 X105.787 Y95.727 E63.35567
G1 X105.009 Y95.009 F6000.000
G1 X84.991 Y95.009 E64.17895 F900.000
G1 X84.991 Y74.991 E65.00224
G1 X105.009 Y74.991 E65.82552
G1 X105.009 Y94.949 E66.64634
G1 X104.232 Y94.232 F6000.000
G1 X85.768 Y94.232 E67.40566 F900.000
G1 X85.768 Y75.768 E68.16499
G1 X104.232 Y75.768 E68.92431
G1 X104.232 Y94.172 E69.68117
G1 X103.454 Y93.454 F6000.000
G1 X86.546 Y93.454 E70.37654 F900.000
G1 X86.546 Y76.546 E71.07191
G1 X103.454 Y76.546 E71.76727
G1 X103.454 Y93.394 E72.46017
G1 X102.676 Y92.676 F6000.000
G1 X87.324 Y92.676 E73.09158 F900.000
G1 X87.324 Y77.324 E73.72299
G1 X102.676 Y77.324 E74.35439
G1 X102.676 Y92.616 E74.98333
G1 F900.000 E73.98333
G92 E0
G1 Z0.450 F6000.000
G1 X101.000 Y91.000 F6000.000
G1 E1.00000 F900.000
G1 X89.000 Y91.000 E1.07374 F1800.000
G1 X89.000 Y79.000 E1.14748
G1 X101.000 Y79.000 E1.22122
G1 X101.000 Y90.940 E1.29459
G1 X100.600 Y90.600 F6000.000
G1 X89.400 Y90.600 E1.36341 F1800.000
G1 X89.400 Y79.400 E1.43223
G1 X100.600 Y79.400 E1.50106
G1 X100.600 Y90.540 E1.56951
G1 X100.200 Y90.200 F6000.000
G1 X89.800 Y90.200 E1.63342 F540.000
G1 X89.800 Y79.800 E1.69732
G1 X100.200 Y79.800 E1.76123
G1 X100.200 Y90.140 E1.82477
G1 X100.200 Y90.600 F6000.000
G1 X114.000 Y104.000 F6000.000
G1 X76.000 Y104.000 E2.05828 F1800.000
G1 X76.000 Y66.000 E2.29178
G1 X114.000 Y66.000 E2.52529
G1 X114.000 Y103.940 E2.75843
G1 X114.400 Y104.400 F6000.000
G1 X75.600 Y104.400 E2.99685 F1800.000
G1 X75.600 Y65.600 E3.23527
G1 X114.400 Y65.600 E3.47369
G1 X114.400 Y104.340 E3.71175
G1 X114.800 Y104.800 F6000.000
G1 X75.200 Y104.800 E3.95509 F540.000
G1 X75.200 Y65.200 E4.19842
G1 X114.800 Y65.200 E4.44176
G1 X114.800 Y104.740 E4.68473
G1 X114.454 Y104.600 F6000.000
G1 X113.537 Y103.497 F6000.000
G1 X113.497 Y103.537 E4.68531 F3000.000
G1 X112.560 Y103.537 E4.69479
G1 X113.537 Y102.560 E4.70878
G1 X113.537 Y101.622 E4.71826
G1 X111.622 Y103.537 E4.74566
G1 X110.685 Y103.537 E4.75515
G1 X113.537 Y100.685 E4.79596
G1 X113.537 Y99.747 E4.80545
G1 X109.747 Y103.537 E4.85968
G1 X108.809 Y103.537 E4.86916
G1 X113.537 Y98.809 E4.93680
G1 X113.537 Y97.872 E4.94629
G1 X107.872 Y103.537 E5.02735
G1 X106.934 Y103.537 E5.03683
G1 X113.537 Y96.934 E5.13130
G1 X113.537 Y95.997 E5.14079
G1 X105.997 Y103.537 E5.24867
G1 X105.059 Y103.537 E5.25816
G1 X113.537 Y95.059 E5.37946
G1 X113.537 Y94.121 E5.38894
G1 X104.121 Y103.537 E5.52366
G1 X103.184 Y103.537 E5.53314
G1 X113.537 Y93.184 E5.68127
G1 X113.537 Y92.246 E5.69076
G1 X102.246 Y103.537 E5.85230
G1 X101.309 Y103.537 E5.86178
G1 X113.537 Y91.309 E6.03674
G1 X113.537 Y90.371 E6.04622
G1 X100.371 Y103.537 E6.23459
G1 X99.434 Y103.537 E6.24408
G1 X113.537 Y89.434 E6.44586
G1 X113.537 Y88.496 E6.45535
G1 X98.496 Y103.537 E6.67055
G1 X97.558 Y103.537 E6.68003
G1 X113.537 Y87.558 E6.90864
G1 X113.537 Y86.621 E6.91813
G1 X96.621 Y103.537 E7.16016
G1 X95.683 Y103.537 E7.16964
G1 X113.537 Y85.683 E7.42508
G1 X113.537 Y84.746 E7.43457
G1 X94.746 Y103.537 E7.70342
G1 X93.808 Y103.537 E7.71291
G1 X113.537 Y83.808 E7.99518
G1 X113.537 Y82.870 E8.00466
G1 X92.870 Y103.537 E8.30034
G1 X91.933 Y103.537 E8.30983
G1 X113.537 Y81.933 E8.61893
G1 X113.537 Y80.995 E8.62841
G1 X90.995 Y103.537 E8.95092
G1 X90.058 Y103.537 E8.96041
G1 X113.537 Y80.058 E9.29633
G1 X113.537 Y79.120 E9.30582
G1 X89.120 Y103.537 E9.65516
G1 X88.183 Y103.537 E9.66464
G1 X100.257 Y91.463 E9.83740
G1 X99.319 Y91.463 E9.84688
G1 X87.245 Y103.537 E10.01963
G1 X86.307 Y103.537 E10.02912
G1 X98.382 Y91.463 E10.20187
G1 X97.444 Y91.463 E10.21136
G1 X85.370 Y103.537 E10.38411
G1 X84.432 Y103.537 E10.39359
G1 X96.507 Y91.463 E10.56635
G1 X95.569 Y91.463 E10.57583
G1 X83.495 Y103.537 E10.74858
G1 X82.557 Y103.537 E10.75807
G1 X94.632 Y91.463 E10.93082
G1 X93.694 Y91.463 E10.94031
G1 X81.619 Y103.537 E11.11306
G1 X80.682 Y103.537 E11.12254
G1 X92.756 Y91.463 E11.29530
G1 X91.819 Y91.463 E11.30478
G1 X79.744 Y103.537 E11.47753
G1 X78.807 Y103.537 E11.48702
G1 X90.881 Y91.463 E11.65977
G1 X89.944 Y91.463 E11.66926
G1 X77.869 Y103.537 E11.84201
G1 X76.932 Y103.537 E11.85149
G1 X89.006 Y91.463 E12.02425
G1 X88.537 Y90.994 E12.03095
G1 X76.463 Y103.068 E12.20370
G1 X76.463 Y102.131 E12.21319
G1 X88.537 Y90.056 E12.38594
G1 X88.537 Y89.119 E12.39543
G1 X76.463 Y101.193 E12.56818
G1 X76.463 Y100.256 E12.57766
G1 X88.537 Y88.181 E12.75042
G1 X88.537 Y87.244 E12.75990
G1 X76.463 Y99.318 E12.93265
G1 X76.463 Y98.381 E12.94214
G1 X88.537 Y86.306 E13.11489
G1 X88.537 Y85.368 E13.12438
G1 X76.463 Y97.443 E13.29713
G1 X76.463 Y96.505 E13.30661
G1 X88.537 Y84.431 E13.47937
G1 X88.537 Y83.493 E13.48885
G1 X76.463 Y95.568 E13.66160
G1 X76.463 Y94.630 E13.67109
G1 X88.537 Y82.556 E13.84384
G1 X88.537 Y81.618 E13.85333
G1 X76.463 Y93.693 E14.02608
G1 X76.463 Y92.755 E14.03556
G1 X88.537 Y80.681 E14.20832
G1 X88.537 Y79.743 E14.21780
G1 X76.463 Y91.817 E14.39055
G1 X76.463 Y90.880 E14.40004
G1 X100.880 Y66.463 E14.74938
G1 X99.942 Y66.463 E14.75886
G1 X76.463 Y89.942 E15.09479
G1 X76.463 Y89.005 E15.10427
G1 X99.005 Y66.463 E15.42679
G1 X98.067 Y66.463 E15.43627
G1 X76.463 Y88.067 E15.74537
G1 X76.463 Y87.130 E15.75485
G1 X97.130 Y66.463 E16.05054
G1 X96.192 Y66.463 E16.06002
G1 X76.463 Y86.192 E16.34229
G1 X76.463 Y85.254 E16.35178
G1 X95.254 Y66.463 E16.62063
G1 X94.317 Y66.463 E16.63012
G1 X76.463 Y84.317 E16.88556
G1 X76.463 Y83.379 E16.89504
G1 X93.379 Y66.463 E17.13707
G1 X92.442 Y66.463 E17.14655
G1 X76.463 Y82.442 E17.37517
G1 X76.463 Y81.504 E17.38465
G1 X91.504 Y66.463 E17.59985
G1 X90.566 Y66.463 E17.60934
G1 X76.463 Y80.566 E17.81112
G1 X76.463 Y79.629 E17.82060
G1 X89.629 Y66.463 E18.00897
G1 X88.691 Y66.463 E18.01846
G1 X76.463 Y78.691 E18.19342
G1 X76.463 Y77.754 E18.20290
G1 X87.754 Y66.463 E18.36444
G1 X86.816 Y66.463 E18.37393
G1 X76.463 Y76.816 E18.52206
G1 X76.463 Y75.879 E18.53154
G1 X85.879 Y66.463 E18.66625
G1 X84.941 Y66.463 E18.67574
G1 X76.463 Y74.941 E18.79704
G1 X76.463 Y74.003 E18.80652
G1 X84.003 Y66.463 E18.91441
G1 X83.066 Y66.463 E18.92389
G1 X76.463 Y73.066 E19.01837
G1 X76.463 Y72.128 E19.02785
G1 X82.128 Y66.463 E19.10891
G1 X81.191 Y66.463 E19.11839
G1 X76.463 Y71.191 E19.18604
G1 X76.463 Y70.253 E19.19552
G1 X80.253 Y66.463 E19.24975
G1 X79.315 Y66.463 E19.25924
G1 X76.463 Y69.315 E19.30005
G1 X76.463 Y68.378 E19.30954
G1 X78.378 Y66.463 E19.33694
G1 X77.440 Y66.463 E19.34642
G1 X76.463 Y67.440 E19.36041
G1 X76.463 Y66.503 E19.36989
G1 X76.503 Y66.463 E19.37047
G1 X89.743 Y78.537 F6000.000
G1 X101.817 Y66.463 E19.54322 F3000.000
G1 X102.755 Y66.463 E19.55270
G1 X90.681 Y78.537 E19.72545
G1 X91.618 Y78.537 E19.73494
G1 X103.693 Y66.463 E19.90769
G1 X104.630 Y66.463 E19.91718
G1 X92.556 Y78.537 E20.08993
G1 X93.493 Y78.537 E20.09941
G1 X105.568 Y66.463 E20.27217
G1 X106.505 Y66.463 E20.28165
G1 X94.431 Y78.537 E20.45440
G1 X95.368 Y78.537 E20.46389
G1 X107.443 Y66.463 E20.63664
G1 X108.381 Y66.463 E20.64613
G1 X96.306 Y78.537 E20.81888
G1 X97.244 Y78.537 E20.82836
G1 X109.318 Y66.463 E21.00112
G1 X110.256 Y66.463 E21.01060
G1 X98.181 Y78.537 E21.18335
G1 X99.119 Y78.537 E21.19284
G1 X111.193 Y66.463 E21.36559
G1 X112.131 Y66.463 E21.37508
G1 X100.056 Y78.537 E21.54783
G1 X100.994 Y78.537 E21.55731
G1 X113.068 Y66.463 E21.73007
G1 X113.537 Y66.932 E21.73677
G1 X101.463 Y79.006 E21.90953
G1 X101.463 Y79.944 E21.91901
G1 X113.537 Y67.869 E22.09176
G1 X113.537 Y68.807 E22.10125
G1 X101.463 Y80.881 E22.27400
G1 X101.463 Y81.819 E22.28349
G1 X113.537 Y69.744 E22.45624
G1 X113.537 Y70.682 E22.46572
G1 X101.463 Y82.756 E22.63848
G1 X101.463 Y83.694 E22.64796
G1 X113.537 Y71.619 E22.82071
G1 X113.537 Y72.557 E22.83020
G1 X101.463 Y84.632 E23.00295
G1 X101.463 Y85.569 E23.01243
G1 X113.537 Y73.495 E23.18519
G1 X113.537 Y74.432 E23.19467
G1 X101.463 Y86.507 E23.36742
G1 X101.463 Y87.444 E23.37691
G1 X113.537 Y75.370 E23.54966
G1 X113.537 Y76.307 E23.55915
G1 X101.463 Y88.382 E23.73190
G1 X101.463 Y89.319 E23.74138
G1 X113.537 Y77.245 E23.91414
G1 X113.537 Y78.183 E23.92362
G1 X101.463 Y90.257 E24.09637
G1 F900.000 E23.09637
G92 E0
G1 Z0.550 F6000.000
G1 X101.000 Y91.000 F6000.000
G1 E1.00000 F900.000
G1 X89.000 Y91.000 E1.07374 F1800.000
G1 X89.000 Y79.000 E1.14748
G1 X101.000 Y79.000 E1.22122
G1 X101.000 Y90.940 E1.29459
G1 X100.600 Y90.600 F6000.000
G1 X89.400 Y90.600 E1.36341 F1800.000
G1 X89.400 Y79.400 E1.43223
G1 X100.600 Y79.400 E1.50106
G1 X100.600 Y90.540 E1.56951
G1 X100.200 Y90.200 F6000.000
G1 X89.800 Y90.200 E1.63342 F540.000
G1 X89.800 Y79.800 E1.69732
G1 X100.200 Y79.800 E1.76123
G1 X100.200 Y90.140 E1.82477
G1 X100.200 Y90.600 F6000.000
G1 X114.000 Y104.000 F6000.000
G1 X76.000 Y104.000 E2.05828 F1800.000
G1 X76.000 Y66.000 E2.29178
G1 X114.000 Y66.000 E2.52529
G1 X114.000 Y103.940 E2.75843
G1 X114.400 Y104.400 F6000.000
G1 X75.600 Y104.400 E2.99685 F1800.000
G1 X75.600 Y65.600 E3.23527
G1 X114.400 Y65.600 E3.47369
G1 X114.400 Y104.340 E3.71175
G1 X114.800 Y104.800 F6000.000
G1 X75.200 Y104.800 E3.95509 F540.000
G1 X75.200 Y65.200 E4.19842
G1 X114.800 Y65.200 E4.44176
G1 X114.800 Y104.740 E4.68473
G1 X114.454 Y104.600 F6000.000
G1 X88.537 Y90.257 F6000.000
G1 X76.463 Y78.183 E4.85749 F3000.000
G1 X76.463 Y77.245 E4.86697
G1 X88.537 Y89.319 E5.03972
G1 X88.537 Y88.382 E5.04921
G1 X76.463 Y76.307 E5.22196
G1 X76.463 Y75.370 E5.23145
G1 X88.537 Y87.444 E5.40420
G1 X88.537 Y86.507 E5.41368
G1 X76.463 Y74.432 E5.58643
G1 X76.463 Y73.495 E5.59592
G1 X88.537 Y85.569 E5.76867
G1 X88.537 Y84.632 E5.77816
G1 X76.463 Y72.557 E5.95091
G1 X76.463 Y71.619 E5.96039
G1 X88.537 Y83.694 E6.13315
G1 X88.537 Y82.756 E6.14263
G1 X76.463 Y70.682 E6.31538
G1 X76.463 Y69.744 E6.32487
G1 X88.537 Y81.819 E6.49762
G1 X88.537 Y80.881 E6.50711
G1 X76.463 Y68.807 E6.67986
G1 X76.463 Y67.869 E6.68934
G1 X88.537 Y79.944 E6.86210
G1 X88.537 Y79.006 E6.87158
G1 X76.463 Y66.932 E7.04433
G1 X76.932 Y66.463 E7.05104
G1 X89.006 Y78.537 E7.22379
G1 X89.944 Y78.537 E7.23328
G1 X77.869 Y66.463 E7.40603
G1 X78.807 Y66.463 E7.41552
G1 X90.881 Y78.537 E7.58827
G1 X91.819 Y78.537 E7.59775
G1 X79.744 Y66.463 E7.77051
G1 X80.682 Y66.463 E7.77999
G1 X92.756 Y78.537 E7.95274
G1 X93.694 Y78.537 E7.96223
G1 X81.619 Y66.463 E8.13498
G1 X82.557 Y66.463 E8.14447
G1 X94.632 Y78.537 E8.31722
G1 X95.569 Y78.537 E8.32670
G1 X83.495 Y66.463 E8.49945
G1 X84.432 Y66.463 E8.50894
G1 X96.507 Y78.537 E8.68169
G1 X97.444 Y78.537 E8.69118
G1 X85.370 Y66.463 E8.86393
G1 X86.307 Y66.463 E8.87341
G1 X98.382 Y78.537 E9.04617
G1 X99.319 Y78.537 E9.05565
G1 X87.245 Y66.463 E9.22840
G1 X88.183 Y66.463 E9.23789
G1 X100.257 Y78.537 E9.41064
G1 X113.497 Y66.463 F6000.000
G1 X113.537 Y66.503 E9.41121 F3000.000
G1 X113.537 Y67.440 E9.42070
G1 X112.560 Y66.463 E9.43469
G1 X111.622 Y66.463 E9.44417
G1 X113.537 Y68.378 E9.47157
G1 X113.537 Y69.315 E9.48106
G1 X110.685 Y66.463 E9.52187
G1 X109.747 Y66.463 E9.53136
G1 X113.537 Y70.253 E9.58559
G1 X113.537 Y71.191 E9.59507
G1 X108.809 Y66.463 E9.66271
G1 X107.872 Y66.463 E9.67220
G1 X113.537 Y72.128 E9.75326
G1 X113.537 Y73.066 E9.76274
G1 X106.934 Y66.463 E9.85721
G1 X105.997 Y66.463 E9.86670
G1 X113.537 Y74.003 E9.97458
G1 X113.537 Y74.941 E9.98407
G1 X105.059 Y66.463 E10.10537
G1 X104.121 Y66.463 E10.11485
G1 X113.537 Y75.879 E10.24957
G1 X113.537 Y76.816 E10.25905
G1 X103.184 Y66.463 E10.40718
G1 X102.246 Y66.463 E10.41666
G1 X113.537 Y77.754 E10.57821
G1 X113.537 Y78.691 E10.58769
G1 X101.309 Y66.463 E10.76265
G1 X100.371 Y66.463 E10.77213
G1 X113.537 Y79.629 E10.96050
G1 X113.537 Y80.566 E10.96999
G1 X99.434 Y66.463 E11.17177
G1 X98.496 Y66.463 E11.18126
G1 X113.537 Y81.504 E11.39646
G1 X113.537 Y82.442 E11.40594
G1 X97.558 Y66.463 E11.63455
G1 X96.621 Y66.463 E11.64404
G1 X113.537 Y83.379 E11.88607
G1 X113.537 Y84.317 E11.89555
G1 X95.683 Y66.463 E12.15099
G1 X94.746 Y66.463 E12.16048
G1 X113.537 Y85.254 E12.42933
G1 X113.537 Y86.192 E12.43882
G1 X93.808 Y66.463 E12.72109
G1 X92.870 Y66.463 E12.73057
G1 X113.537 Y87.130 E13.02625
G1 X113.537 Y88.067 E13.03574
G1 X91.933 Y66.463 E13.34484
G1 X90.995 Y66.463 E13.35432
G1 X113.537 Y89.005 E13.67683
G1 X113.537 Y89.942 E13.68632
G1 X90.058 Y66.463 E14.02224
G1 X89.120 Y66.463 E14.03173
G1 X113.537 Y90.880 E14.38107
G1 X113.537 Y91.817 E14.39055
G1 X101.463 Y79.743 E14.56331
G1 X101.463 Y80.681 E14.57279
G1 X113.537 Y92.755 E14.74554
G1 X113.537 Y93.693 E14.75503
G1 X101.463 Y81.618 E14.92778
