; generated by Slic3r 1.2.1 on 2014-12-10 at 12:41:15

; external perimeters extrusion width = 0.40mm
; perimeters extrusion width = 0.68mm
; infill extrusion width = 1.28mm
; solid infill extrusion width = 0.68mm
; top infill extrusion width = 0.68mm

M190 S90 ; wait for bed temperature to be reached
M104 S230 ; set temperature
G28 ; home all axes
G1 Z5 F5000 ; lift nozzle
M109 S230 ; wait for temperature to be reached
G21 ; set units to millimeters
G90 ; use absolute coordinates
M82 ; use absolute distances for extrusion
G92 E0
G1 E-1.00000 F900.000
G92 E0
G1 Z0.350 F7800.000
G1 X83.905 Y83.905 F7800.000
G1 E1.00000 F900.000
G1 X84.809 Y83.047 E1.05124 F1080.000
G1 X85.584 Y82.383 E1.09325
G1 X86.095 Y81.978 E1.12004
G1 X86.853 Y81.417 E1.15882
G1 X87.700 Y80.846 E1.20083
G1 X88.571 Y80.313 E1.24284
G1 X89.866 Y79.617 E1.30330
G1 X90.791 Y79.183 E1.34532
G1 X91.734 Y78.790 E1.38733
G1 X92.344 Y78.563 E1.41412
G1 X93.239 Y78.264 E1.45290
G1 X94.221 Y77.982 E1.49491
G1 X95.214 Y77.745 E1.53692
G1 X96.218 Y77.553 E1.57894
G1 X97.306 Y77.397 E1.62418
G1 X98.693 Y77.274 E1.68141
G1 X99.714 Y77.238 E1.72342
G1 X100.735 Y77.248 E1.76543
G1 X101.755 Y77.304 E1.80745 F1080.000
G1 X102.772 Y77.406 E1.84946
G1 X103.782 Y77.553 E1.89147
G1 X104.786 Y77.745 E1.93349
G1 X105.779 Y77.982 E1.97550
G1 X106.761 Y78.264 E2.01751
G1 X107.730 Y78.589 E2.05953
G1 X108.339 Y78.820 E2.08630
G1 X109.209 Y79.183 E2.12509
G1 X110.134 Y79.617 E2.16710
G1 X111.038 Y80.092 E2.20912
G1 X111.920 Y80.607 E2.25113
G1 X112.778 Y81.161 E2.29314
G1 X113.611 Y81.754 E2.33515
G1 X114.416 Y82.383 E2.37716
G1 X115.191 Y83.047 E2.41918
G1 X115.937 Y83.746 E2.46118
G1 X116.650 Y84.477 E2.50320
G1 X117.330 Y85.240 E2.54521
G1 X117.974 Y86.032 E2.58723
G1 X118.583 Y86.853 E2.62924
G1 X119.154 Y87.700 E2.67125
G1 X119.908 Y88.962 E2.73171
G1 X120.383 Y89.866 E2.77372
G1 X120.817 Y90.791 E2.81574
G1 X121.210 Y91.734 E2.85775
G1 X121.559 Y92.694 E2.89976
G1 X121.865 Y93.668 E2.94177
G1 X122.018 Y94.221 E2.96533
G1 X122.255 Y95.214 E3.00734
G1 X122.447 Y96.218 E3.04936
G1 X122.594 Y97.228 E3.09137
G1 X122.696 Y98.245 E3.13338
G1 X122.752 Y99.265 E3.17540
G1 X122.762 Y100.286 E3.21740
G1 X122.726 Y101.307 E3.25942
G1 X122.644 Y102.326 E3.30143
G1 X122.517 Y103.339 E3.34344
G1 X122.345 Y104.346 E3.38545
G1 X122.018 Y105.779 E3.44592
G1 X121.736 Y106.761 E3.48793
G1 X121.411 Y107.730 E3.52994
G1 X121.043 Y108.683 E3.57195
G1 X120.632 Y109.618 E3.61396
G1 X120.180 Y110.534 E3.65598
G1 X119.687 Y111.429 E3.69799
G1 X119.196 Y112.234 E3.73677
G1 X118.838 Y112.778 E3.76356
G1 X118.246 Y113.611 E3.80557
G1 X117.617 Y114.416 E3.84759
G1 X116.953 Y115.191 E3.88960
G1 X116.254 Y115.937 E3.93161
G1 X115.523 Y116.650 E3.97362
G1 X114.760 Y117.330 E4.01563
G1 X113.968 Y117.974 E4.05765
G1 X113.147 Y118.583 E4.09966
G1 X111.920 Y119.393 E4.16012
G1 X111.038 Y119.908 E4.20214
G1 X110.134 Y120.383 E4.24414
G1 X109.209 Y120.817 E4.28616
G1 X108.266 Y121.210 E4.32817
G1 X107.306 Y121.559 E4.37018
G1 X106.332 Y121.865 E4.41219
G1 X105.344 Y122.127 E4.45421
G1 X104.423 Y122.329 E4.49299
G1 X103.782 Y122.447 E4.51978
G1 X102.772 Y122.594 E4.56179
G1 X101.755 Y122.696 E4.60380
G1 X100.735 Y122.752 E4.64582
G1 X99.714 Y122.762 E4.68782
G1 X98.693 Y122.726 E4.72984
G1 X97.674 Y122.644 E4.77185
G1 X96.661 Y122.517 E4.81386
G1 X95.654 Y122.345 E4.85587
G1 X94.656 Y122.127 E4.89789
G1 X93.239 Y121.736 E4.95835
G1 X92.270 Y121.411 E5.00037
G1 X91.317 Y121.042 E5.04238
G1 X90.382 Y120.632 E5.08438
G1 X89.466 Y120.180 E5.12640
G1 X88.571 Y119.687 E5.16841
G1 X87.700 Y119.154 E5.21042
G1 X86.853 Y118.583 E5.25244
G1 X86.032 Y117.974 E5.29445
G1 X85.240 Y117.330 E5.33646
G1 X84.477 Y116.650 E5.37847
G1 X84.063 Y116.254 E5.40203
G1 X83.350 Y115.523 E5.44404
G1 X82.670 Y114.760 E5.48606
G1 X82.026 Y113.968 E5.52806
G1 X81.417 Y113.147 E5.57008
G1 X80.846 Y112.300 E5.61209
G1 X80.092 Y111.038 E5.67256
G1 X79.617 Y110.134 E5.71457
G1 X79.183 Y109.209 E5.75658
G1 X78.790 Y108.266 E5.79859
G1 X78.441 Y107.306 E5.84061
G1 X78.135 Y106.332 E5.88261
G1 X77.873 Y105.344 E5.92463
G1 X77.655 Y104.346 E5.96664
G1 X77.483 Y103.339 E6.00866
G1 X77.356 Y102.326 E6.05067
G1 X77.279 Y101.386 E6.08945
G1 X77.248 Y100.735 E6.11623
G1 X77.238 Y99.714 E6.15824
G1 X77.274 Y98.693 E6.20025
G1 X77.356 Y97.674 E6.24227
G1 X77.483 Y96.661 E6.28428
G1 X77.655 Y95.654 E6.32629
G1 X77.982 Y94.220 E6.38676
G1 X78.264 Y93.239 E6.42877
G1 X78.589 Y92.270 E6.47079
G1 X78.957 Y91.317 E6.51279
G1 X79.368 Y90.382 E6.55481
G1 X79.820 Y89.466 E6.59682
G1 X80.313 Y88.571 E6.63883
G1 X80.846 Y87.700 E6.68084
G1 X81.417 Y86.853 E6.72286
G1 X82.026 Y86.032 E6.76487
G1 X82.670 Y85.240 E6.80688
G1 X83.350 Y84.477 E6.84889
G1 X83.862 Y83.947 E6.87921
G1 E5.87921 F900.000
G92 E0
G1 X91.293 Y90.739 F7800.000
G1 E1.00000 F900.000
G1 X91.812 Y90.171 E1.03165 F1080.000
G1 X92.026 Y90.141 E1.04052
G1 X92.573 Y89.726 E1.06875
G1 X93.472 Y89.133 E1.11307
G1 X93.966 Y88.851 E1.13646
G1 X94.473 Y88.591 E1.15986
G1 X94.990 Y88.355 E1.18326
G1 X95.517 Y88.142 E1.20665
G1 X96.054 Y87.953 E1.23005
G1 X96.656 Y87.772 E1.25592
G1 X97.208 Y87.634 E1.27932
G1 X97.766 Y87.521 E1.30271
G1 X98.328 Y87.434 E1.32611
G1 X98.894 Y87.371 E1.34950
G1 X99.461 Y87.334 E1.37290
G1 X100.139 Y87.325 E1.40076
G1 X101.166 Y87.377 E1.44308 F1080.000
G1 X101.731 Y87.442 E1.46648
G1 X102.293 Y87.532 E1.48987
G1 X102.850 Y87.647 E1.51327
G1 X103.402 Y87.788 E1.53667
G1 X103.946 Y87.953 E1.56006
G1 X104.483 Y88.142 E1.58346
G1 X105.473 Y88.565 E1.62778
G1 X105.981 Y88.822 E1.65117
G1 X106.476 Y89.102 E1.67457
G1 X106.959 Y89.403 E1.69797
G1 X107.427 Y89.726 E1.72136
G1 X107.881 Y90.070 E1.74476
G1 X108.318 Y90.433 E1.76816
G1 X108.739 Y90.816 E1.79155
G1 X109.142 Y91.218 E1.81495
G1 X109.527 Y91.637 E1.83835
G1 X109.893 Y92.072 E1.86174
G1 X110.238 Y92.524 E1.88514
G1 X110.563 Y92.991 E1.90854
G1 X110.898 Y93.524 E1.93441
G1 X111.178 Y94.019 E1.95780
G1 X111.435 Y94.527 E1.98120
G1 X111.669 Y95.045 E2.00460
G1 X111.879 Y95.574 E2.02799
G1 X112.066 Y96.111 E2.05139
G1 X112.228 Y96.656 E2.07479
G1 X112.366 Y97.208 E2.09818
G1 X112.479 Y97.766 E2.12158
G1 X112.566 Y98.328 E2.14498
G1 X112.629 Y98.894 E2.16838
G1 X112.666 Y99.461 E2.19177
G1 X112.677 Y100.030 E2.21517
G1 X112.663 Y100.599 E2.23857
G1 X112.623 Y101.166 E2.26196
G1 X112.558 Y101.731 E2.28536
G1 X112.468 Y102.293 E2.30876
G1 X112.353 Y102.850 E2.33215
G1 X112.212 Y103.402 E2.35555
G1 X111.879 Y104.426 E2.39986
G1 X111.669 Y104.955 E2.42326
G1 X111.435 Y105.473 E2.44666
G1 X111.178 Y105.981 E2.47006
G1 X110.898 Y106.476 E2.49345
G1 X110.563 Y107.009 E2.51932
G1 X110.238 Y107.476 E2.54272
G1 X109.893 Y107.928 E2.56611
G1 X109.527 Y108.363 E2.58951
G1 X109.142 Y108.782 E2.61291
G1 X108.739 Y109.184 E2.63630
G1 X108.318 Y109.567 E2.65970
G1 X107.881 Y109.930 E2.68310
G1 X107.427 Y110.274 E2.70649
G1 X106.959 Y110.597 E2.72989
G1 X106.476 Y110.898 E2.75329
G1 X105.981 Y111.178 E2.77668
G1 X105.473 Y111.435 E2.80008
G1 X104.483 Y111.858 E2.84439
G1 X103.946 Y112.047 E2.86779
G1 X103.402 Y112.212 E2.89119
G1 X102.792 Y112.366 E2.91706
G1 X102.234 Y112.479 E2.94045
G1 X101.672 Y112.566 E2.96385
G1 X101.106 Y112.629 E2.98725
G1 X100.539 Y112.666 E3.01065
G1 X99.970 Y112.677 E3.03404
G1 X99.401 Y112.663 E3.05744
G1 X98.834 Y112.623 E3.08084
G1 X98.269 Y112.558 E3.10423
G1 X97.707 Y112.468 E3.12763
G1 X97.150 Y112.353 E3.15103
G1 X96.598 Y112.212 E3.17442
G1 X96.054 Y112.047 E3.19782
G1 X95.517 Y111.858 E3.22122
G1 X94.990 Y111.645 E3.24461
G1 X94.473 Y111.409 E3.26801
G1 X93.966 Y111.149 E3.29141
G1 X93.472 Y110.867 E3.31480
G1 X92.991 Y110.563 E3.33820
G1 X92.524 Y110.238 E3.36160
G1 X92.072 Y109.893 E3.38499
G1 X91.637 Y109.527 E3.40839
G1 X91.218 Y109.142 E3.43179
G1 X90.816 Y108.739 E3.45519
G1 X90.433 Y108.318 E3.47858
G1 X89.762 Y107.476 E3.52290
G1 X89.437 Y107.009 E3.54629
G1 X89.133 Y106.528 E3.56969
G1 X88.773 Y105.884 E3.60002
G1 X88.331 Y104.955 E3.64234
G1 X88.121 Y104.426 E3.66573
G1 X87.934 Y103.889 E3.68913
G1 X87.772 Y103.344 E3.71253
G1 X87.634 Y102.792 E3.73593
G1 X87.521 Y102.234 E3.75932
G1 X87.434 Y101.672 E3.78272
G1 X87.371 Y101.106 E3.80612
G1 X87.334 Y100.539 E3.82951
G1 X87.334 Y99.461 E3.87383
G1 X87.371 Y98.894 E3.89722
G1 X87.434 Y98.328 E3.92062
G1 X87.521 Y97.766 E3.94402
G1 X87.634 Y97.208 E3.96741
G1 X87.819 Y96.494 E3.99774
G1 X88.142 Y95.517 E4.04006
G1 X88.355 Y94.990 E4.06346
G1 X88.591 Y94.473 E4.08686
G1 X89.102 Y93.524 E4.13117
G1 X89.403 Y93.041 E4.15457
G1 X89.726 Y92.573 E4.17796
G1 X90.070 Y92.119 E4.20136
G1 X90.433 Y91.682 E4.22476
G1 X91.253 Y90.784 E4.27475
G1 X91.817 Y91.300 F7800.000
G1 X92.067 Y91.027 E4.28997 F1080.000
G1 X92.189 Y91.007 E4.29505
G1 X93.016 Y90.350 E4.33847
G1 X93.872 Y89.785 E4.38066
G1 X94.812 Y89.277 E4.42462
G1 X95.794 Y88.855 E4.46858
G1 X96.810 Y88.523 E4.51254
G1 X97.852 Y88.283 E4.55650
G1 X98.422 Y88.193 E4.58025
G1 X98.954 Y88.134 E4.60223
G1 X100.021 Y88.088 E4.64619
G1 X101.089 Y88.138 E4.69015 F1080.000
G1 X102.148 Y88.283 E4.73411
G1 X103.190 Y88.523 E4.77807
G1 X104.206 Y88.855 E4.82203
G1 X105.188 Y89.277 E4.86599
G1 X106.091 Y89.763 E4.90819
G1 X106.984 Y90.350 E4.95215
G1 X107.821 Y91.015 E4.99611
G1 X108.595 Y91.752 E5.04007
G1 X109.300 Y92.556 E5.08402
G1 X109.930 Y93.420 E5.12798
G1 X110.237 Y93.909 E5.15173
G1 X110.742 Y94.851 E5.19569
G1 X111.160 Y95.834 E5.23965
G1 X111.477 Y96.810 E5.28185
G1 X111.717 Y97.852 E5.32581
G1 X111.862 Y98.911 E5.36977
G1 X111.912 Y99.979 E5.41373
G1 X111.866 Y101.046 E5.45768
G1 X111.725 Y102.106 E5.50164
G1 X111.489 Y103.148 E5.54561
G1 X111.193 Y104.071 E5.58545
G1 X110.945 Y104.702 E5.61331
G1 X110.480 Y105.664 E5.65727
G1 X109.953 Y106.545 E5.69947
G1 X109.327 Y107.410 E5.74343
G1 X108.625 Y108.217 E5.78739
G1 X107.854 Y108.957 E5.83135
G1 X107.019 Y109.625 E5.87531
G1 X106.128 Y110.215 E5.91926
G1 X105.188 Y110.723 E5.96322
G1 X104.206 Y111.145 E6.00718
G1 X103.286 Y111.448 E6.04703
G1 X102.630 Y111.618 E6.07489
G1 X101.578 Y111.807 E6.11885
G1 X100.513 Y111.901 E6.16281
G1 X99.444 Y111.899 E6.20677
G1 X98.380 Y111.802 E6.25073
G1 X97.328 Y111.609 E6.29469
G1 X96.299 Y111.323 E6.33865
G1 X95.298 Y110.945 E6.38261
G1 X94.374 Y110.500 E6.42480
G1 X93.455 Y109.953 E6.46876
G1 X92.590 Y109.327 E6.51272
G1 X91.783 Y108.625 E6.55668
G1 X91.043 Y107.854 E6.60064
G1 X90.375 Y107.019 E6.64460
G1 X89.785 Y106.128 E6.68856
G1 X89.277 Y105.188 E6.73252
G1 X89.038 Y104.662 E6.75627
G1 X88.664 Y103.661 E6.80023
G1 X88.382 Y102.630 E6.84419
G1 X88.193 Y101.578 E6.88814
G1 X88.099 Y100.513 E6.93210
G1 X88.099 Y99.487 E6.97430
G1 X88.193 Y98.422 E7.01826
G1 X88.382 Y97.370 E7.06222
G1 X88.552 Y96.714 E7.09008
G1 X88.855 Y95.794 E7.12993
G1 X89.277 Y94.812 E7.17389
G1 X89.785 Y93.872 E7.21784
G1 X90.350 Y93.016 E7.26004
G1 X91.015 Y92.179 E7.30400
G1 X91.777 Y91.344 E7.35047
G1 X92.317 Y91.887 F7800.000
G1 X92.368 Y91.877 E7.35260 F1080.000
G1 X93.040 Y91.293 E7.38923
G1 X93.437 Y90.989 E7.40981
G1 X94.271 Y90.437 E7.45094
G1 X95.152 Y89.962 E7.49208
G1 X96.071 Y89.568 E7.53322
G1 X97.047 Y89.251 E7.57541
G1 X98.022 Y89.030 E7.61655
G1 X99.014 Y88.896 E7.65768
G1 X99.513 Y88.863 E7.67826
G1 X100.104 Y88.855 E7.70259
G1 X101.012 Y88.899 E7.73997 F1080.000
G1 X102.003 Y89.034 E7.78110
G1 X102.978 Y89.258 E7.82224
G1 X103.929 Y89.568 E7.86338
G1 X104.848 Y89.962 E7.90451
G1 X105.729 Y90.437 E7.94565
G1 X106.563 Y90.989 E7.98679
G1 X107.325 Y91.597 E8.02687
G1 X108.048 Y92.287 E8.06800
G1 X108.707 Y93.040 E8.10914
G1 X109.296 Y93.848 E8.15028
G1 X109.576 Y94.294 E8.17191
G1 X110.049 Y95.175 E8.21305
G1 X110.441 Y96.095 E8.25418
G1 X110.749 Y97.047 E8.29532
G1 X110.970 Y98.022 E8.33646
G1 X111.104 Y99.014 E8.37759
G1 X111.147 Y100.013 E8.41873
G1 X111.101 Y101.012 E8.45987
G1 X110.966 Y102.003 E8.50100
G1 X110.749 Y102.953 E8.54108
G1 X110.441 Y103.905 E8.58222
G1 X110.049 Y104.825 E8.62335
G1 X109.576 Y105.706 E8.66449
G1 X109.296 Y106.152 E8.68612
G1 X108.707 Y106.960 E8.72726
G1 X108.048 Y107.713 E8.76840
G1 X107.325 Y108.403 E8.80953
G1 X106.563 Y109.011 E8.84961
G1 X105.729 Y109.563 E8.89075
G1 X104.848 Y110.038 E8.93189
G1 X103.929 Y110.432 E8.97302
G1 X102.978 Y110.742 E9.01416
G1 X102.003 Y110.966 E9.05530
G1 X101.012 Y111.101 E9.09643
G1 X100.487 Y111.137 E9.11806
G1 X99.487 Y111.136 E9.15920
G1 X98.491 Y111.045 E9.20034
G1 X97.532 Y110.871 E9.24042
G1 X96.568 Y110.606 E9.28155
G1 X95.631 Y110.255 E9.32269
G1 X94.729 Y109.822 E9.36383
G1 X93.870 Y109.310 E9.40496
G1 X93.060 Y108.723 E9.44610
G1 X92.306 Y108.066 E9.48724
G1 X91.934 Y107.694 E9.50887
G1 X91.277 Y106.940 E9.55001
G1 X90.690 Y106.130 E9.59114
G1 X90.178 Y105.271 E9.63228
G1 X89.755 Y104.393 E9.67236
G1 X89.402 Y103.457 E9.71349
G1 X89.135 Y102.493 E9.75463
G1 X88.955 Y101.509 E9.79577
G1 X88.871 Y100.604 E9.83315
G1 X88.853 Y99.987 E9.85853
G1 X88.899 Y98.988 E9.89967
G1 X89.034 Y97.997 E9.94081
G1 X89.251 Y97.047 E9.98089
G1 X89.559 Y96.095 E10.02202
G1 X89.951 Y95.175 E10.06316
G1 X90.424 Y94.294 E10.10430
G1 X90.974 Y93.458 E10.14543
G1 X91.597 Y92.675 E10.18657
G1 X92.276 Y91.931 E10.22802
G1 X92.822 Y92.499 F7800.000
G1 X93.523 Y91.885 E10.26633 F1080.000
G1 X94.284 Y91.333 E10.30500
G1 X95.084 Y90.855 E10.34331
G1 X95.499 Y90.644 E10.36247
G1 X96.000 Y90.421 E10.38504
G1 X96.788 Y90.127 E10.41959
G1 X97.234 Y89.993 E10.43876
G1 X98.142 Y89.785 E10.47707
G1 X99.074 Y89.659 E10.51574
G1 X100.004 Y89.618 E10.55405
G1 X100.935 Y89.660 E10.59236 F1080.000
G1 X101.858 Y89.785 E10.63068
G1 X102.766 Y89.993 E10.66899
G1 X103.652 Y90.281 E10.70731
G1 X104.509 Y90.648 E10.74562
G1 X105.329 Y91.089 E10.78393
G1 X106.106 Y91.603 E10.82225
G1 X106.828 Y92.178 E10.86021
G1 X107.501 Y92.822 E10.89852
G1 X108.115 Y93.523 E10.93684
G1 X108.663 Y94.277 E10.97515
G1 X108.915 Y94.679 E10.99467
G1 X109.356 Y95.499 E11.03298
G1 X109.719 Y96.348 E11.07094
G1 X110.007 Y97.234 E11.10926
G1 X110.215 Y98.142 E11.14757
G1 X110.340 Y99.065 E11.18588
G1 X110.382 Y99.996 E11.22420
G1 X110.341 Y100.926 E11.26251
G1 X110.216 Y101.850 E11.30083
G1 X110.009 Y102.758 E11.33914
G1 X109.722 Y103.644 E11.37745
G1 X109.356 Y104.501 E11.41577
G1 X109.141 Y104.924 E11.43528
G1 X108.663 Y105.723 E11.47360
G1 X108.115 Y106.477 E11.51191
G1 X107.507 Y107.172 E11.54987
G1 X106.834 Y107.816 E11.58819
G1 X106.470 Y108.120 E11.60770
G1 X105.716 Y108.667 E11.64602
G1 X104.916 Y109.145 E11.68433
G1 X104.077 Y109.549 E11.72264
G1 X103.204 Y109.876 E11.76096
G1 X102.314 Y110.121 E11.79892
G1 X101.398 Y110.288 E11.83723
G1 X100.470 Y110.372 E11.87555
G1 X99.621 Y110.374 E11.91046
G1 X99.065 Y110.340 E11.93337
G1 X98.142 Y110.215 E11.97169
G1 X97.234 Y110.007 E12.01000
G1 X96.348 Y109.719 E12.04832
G1 X95.491 Y109.352 E12.08663
G1 X94.671 Y108.911 E12.12494
G1 X93.894 Y108.397 E12.16326
G1 X93.166 Y107.816 E12.20157
G1 X92.493 Y107.172 E12.23989
G1 X91.885 Y106.477 E12.27785
G1 X91.337 Y105.723 E12.31616
G1 X90.859 Y104.924 E12.35448
G1 X90.455 Y104.085 E12.39279
G1 X90.127 Y103.212 E12.43110
G1 X89.879 Y102.314 E12.46942
G1 X89.712 Y101.398 E12.50773
G1 X89.634 Y100.553 E12.54264
G1 X89.618 Y99.996 E12.56556
G1 X89.660 Y99.065 E12.60387
G1 X89.785 Y98.142 E12.64219
G1 X89.991 Y97.242 E12.68015
G1 X90.278 Y96.356 E12.71846
G1 X90.644 Y95.499 E12.75678
G1 X91.085 Y94.679 E12.79509
G1 X91.598 Y93.901 E12.83340
G1 X92.178 Y93.172 E12.87172
G1 X92.780 Y92.541 E12.90756
G1 X93.347 Y93.108 F7800.000
G1 X94.027 Y92.510 E12.94482 F162.000
G1 X94.722 Y92.005 E12.98017
G1 X95.460 Y91.564 E13.01552
G1 X95.843 Y91.369 E13.03320
G1 X96.634 Y91.031 E13.06855
G1 X97.451 Y90.765 E13.10391
G1 X98.289 Y90.574 E13.13926
G1 X99.141 Y90.459 E13.17461
G1 X100.069 Y90.422 E13.21280
G1 X100.859 Y90.459 E13.24531 F162.000
G1 X101.711 Y90.574 E13.28066
G1 X102.549 Y90.765 E13.31602
G1 X103.366 Y91.031 E13.35137
G1 X104.157 Y91.369 E13.38672
G1 X104.914 Y91.776 E13.42207
G1 X105.631 Y92.250 E13.45743
G1 X106.303 Y92.786 E13.49278
G1 X106.924 Y93.380 E13.52813
G1 X107.490 Y94.027 E13.56348
G1 X107.995 Y94.722 E13.59883
G1 X108.224 Y95.086 E13.61652
G1 X108.631 Y95.843 E13.65187
