; generated by Slic3r 1.2.6 on 2015-03-16 at 11:42:42

; external perimeters extrusion width = 0.60mm
; perimeters extrusion width = 0.60mm
; infill extrusion width = 0.40mm
; solid infill extrusion width = 0.60mm
; top infill extrusion width = 0.40mm

M104 S255 ; set temperature
M190 S110 ; set bed temperature
G28 ; home all axes
G1 Z5 F5000 ; lift nozzle
M109 S255 ; wait for temperature to be reached
G21 ; set units to millimeters
G90 ; use absolute coordinates
M82 ; use absolute distances for extrusion
G92 E0 ; reset extrusion distance
G1 Z0.400 F6000.000 ; move to next layer (0)
G1 X84.985 Y75.844 F6000.000 ; move to first skirt point
G1 X85.425 Y75.384 E0.02952 F1080.000 ; skirt
G1 X85.886 Y74.946 E0.05903 ; skirt
G1 X86.367 Y74.530 E0.08854 ; skirt
G1 X86.868 Y74.137 E0.11805 ; skirt
G1 X87.386 Y73.768 E0.14757 ; skirt
G1 X87.920 Y73.423 E0.17708 ; skirt
G1 X88.471 Y73.104 E0.20659 ; skirt
G1 X89.036 Y72.811 E0.23611 ; skirt
G1 X89.614 Y72.545 E0.26562 ; skirt
G1 X90.203 Y72.306 E0.29513 ; skirt
G1 X90.804 Y72.095 E0.32464 ; skirt
G1 X91.665 Y71.846 E0.36626 ; skirt
G1 X92.286 Y71.704 E0.39578 ; skirt
G1 X92.912 Y71.592 E0.42529 ; skirt
G1 X93.542 Y71.509 E0.45480 ; skirt
G1 X94.177 Y71.455 E0.48432 ; skirt
G1 X94.812 Y71.431 E0.51383 ; skirt
G1 X95.449 Y71.438 E0.54334 ; skirt
G1 X96.084 Y71.473 E0.57286 ; skirt
G1 X97.069 Y71.589 E0.61889 ; skirt
G1 X97.714 Y71.704 E0.64928 ; skirt
G1 X98.334 Y71.846 E0.67879 ; skirt
G1 X98.947 Y72.017 E0.70830 ; skirt
G1 X99.552 Y72.216 E0.73782 ; skirt
G1 X100.146 Y72.444 E0.76733 ; skirt
G1 X100.729 Y72.699 E0.79684 ; skirt
G1 X101.299 Y72.981 E0.82636 ; skirt
G1 X102.080 Y73.423 E0.86798 ; skirt
G1 X102.614 Y73.768 E0.89749 ; skirt
G1 X103.132 Y74.137 E0.92701 ; skirt
G1 X103.633 Y74.530 E0.95652 ; skirt
G1 X104.114 Y74.946 E0.98603 ; skirt
G1 X104.575 Y75.385 E1.01555 ; skirt
G1 X105.015 Y75.844 E1.04506 ; skirt
G1 X105.434 Y76.323 E1.07457 ; skirt
G1 X105.829 Y76.822 E1.10408 ; skirt
G1 X106.200 Y77.339 E1.13360 ; skirt
G1 X106.547 Y77.872 E1.16311 ; skirt
G1 X106.868 Y78.421 E1.19262 ; skirt
G1 X107.325 Y79.323 E1.23953 ; skirt
G1 X107.578 Y79.907 E1.26904 ; skirt
G1 X107.803 Y80.502 E1.29855 ; skirt
G1 X108.000 Y81.107 E1.32807 ; skirt
G1 X108.168 Y81.721 E1.35758 ; skirt
G1 X108.307 Y82.342 E1.38709 ; skirt
G1 X108.417 Y82.968 E1.41661 ; skirt
G1 X108.497 Y83.599 E1.44612 ; skirt
G1 X108.560 Y84.494 E1.48774 ; skirt
G1 X108.569 Y85.131 E1.51726 ; skirt
G1 X108.548 Y85.766 E1.54677 ; skirt
G1 X108.497 Y86.400 E1.57627 ; skirt
G1 X108.417 Y87.032 E1.60580 ; skirt
G1 X108.307 Y87.658 E1.63531 ; skirt
G1 X108.168 Y88.279 E1.66481 ; skirt
G1 X108.000 Y88.893 E1.69434 ; skirt
G1 X107.803 Y89.498 E1.72385 ; skirt
G1 X107.578 Y90.093 E1.75335 ; skirt
G1 X107.325 Y90.677 E1.78288 ; skirt
G1 X107.046 Y91.248 E1.81239 ; skirt
G1 X106.740 Y91.806 E1.84190 ; skirt
G1 X106.408 Y92.349 E1.87141 ; skirt
G1 X106.040 Y92.891 E1.90180 ; skirt
G1 X105.434 Y93.677 E1.94783 ; skirt
G1 X105.015 Y94.156 E1.97735 ; skirt
G1 X104.575 Y94.615 E2.00686 ; skirt
G1 X104.114 Y95.054 E2.03637 ; skirt
G1 X103.633 Y95.470 E2.06588 ; skirt
G1 X103.132 Y95.863 E2.09540 ; skirt
G1 X102.614 Y96.232 E2.12491 ; skirt
G1 X102.080 Y96.577 E2.15442 ; skirt
G1 X101.529 Y96.896 E2.18394 ; skirt
G1 X100.729 Y97.301 E2.22556 ; skirt
G1 X100.146 Y97.556 E2.25507 ; skirt
G1 X99.552 Y97.784 E2.28458 ; skirt
G1 X98.947 Y97.983 E2.31410 ; skirt
G1 X98.334 Y98.154 E2.34361 ; skirt
G1 X97.714 Y98.296 E2.37313 ; skirt
G1 X97.088 Y98.408 E2.40263 ; skirt
G1 X96.457 Y98.491 E2.43215 ; skirt
G1 X95.823 Y98.545 E2.46167 ; skirt
G1 X95.188 Y98.569 E2.49118 ; skirt
G1 X94.177 Y98.545 E2.53808 ; skirt
G1 X93.543 Y98.491 E2.56760 ; skirt
G1 X92.912 Y98.408 E2.59711 ; skirt
G1 X92.286 Y98.296 E2.62662 ; skirt
G1 X91.666 Y98.154 E2.65614 ; skirt
G1 X91.053 Y97.983 E2.68565 ; skirt
G1 X90.448 Y97.784 E2.71518 ; skirt
G1 X89.613 Y97.455 E2.75679 ; skirt
G1 X89.036 Y97.189 E2.78630 ; skirt
G1 X88.471 Y96.896 E2.81581 ; skirt
G1 X87.920 Y96.577 E2.84533 ; skirt
G1 X87.386 Y96.232 E2.87484 ; skirt
G1 X86.868 Y95.863 E2.90435 ; skirt
G1 X86.367 Y95.470 E2.93387 ; skirt
G1 X85.886 Y95.054 E2.96338 ; skirt
G1 X85.425 Y94.615 E2.99289 ; skirt
G1 X84.985 Y94.156 E3.02240 ; skirt
G1 X84.566 Y93.677 E3.05192 ; skirt
G1 X84.171 Y93.178 E3.08142 ; skirt
G1 X83.800 Y92.661 E3.11094 ; skirt
G1 X83.453 Y92.128 E3.14045 ; skirt
G1 X83.132 Y91.579 E3.16997 ; skirt
G1 X82.836 Y91.015 E3.19948 ; skirt
G1 X82.568 Y90.439 E3.22899 ; skirt
G1 X82.326 Y89.850 E3.25851 ; skirt
G1 X82.113 Y89.251 E3.28801 ; skirt
G1 X81.928 Y88.642 E3.31754 ; skirt
G1 X81.772 Y88.025 E3.34705 ; skirt
G1 X81.644 Y87.402 E3.37656 ; skirt
G1 X81.505 Y86.419 E3.42260 ; skirt
G1 X81.452 Y85.766 E3.45298 ; skirt
G1 X81.431 Y85.131 E3.48249 ; skirt
G1 X81.440 Y84.494 E3.51201 ; skirt
G1 X81.478 Y83.859 E3.54152 ; skirt
G1 X81.546 Y83.227 E3.57103 ; skirt
G1 X81.644 Y82.598 E3.60054 ; skirt
G1 X81.772 Y81.975 E3.63007 ; skirt
G1 X82.000 Y81.107 E3.67168 ; skirt
G1 X82.197 Y80.502 E3.70119 ; skirt
G1 X82.422 Y79.907 E3.73071 ; skirt
G1 X82.675 Y79.323 E3.76022 ; skirt
G1 X82.954 Y78.752 E3.78973 ; skirt
G1 X83.260 Y78.194 E3.81924 ; skirt
G1 X83.592 Y77.651 E3.84876 ; skirt
G1 X83.949 Y77.124 E3.87827 ; skirt
G1 X84.331 Y76.615 E3.90779 ; skirt
G1 X84.945 Y75.889 E3.95191 ; skirt
G1 X85.518 Y76.318 F6000.000 ; move to first skirt point
G1 X85.936 Y75.883 E3.97988 F1080.000 ; skirt
G1 X86.373 Y75.469 E4.00783 ; skirt
G1 X86.829 Y75.075 E4.03579 ; skirt
G1 X87.303 Y74.703 E4.06375 ; skirt
G1 X87.794 Y74.353 E4.09171 ; skirt
G1 X88.301 Y74.027 E4.11967 ; skirt
G1 X88.823 Y73.725 E4.14763 ; skirt
G1 X89.358 Y73.448 E4.17559 ; skirt
G1 X90.116 Y73.108 E4.21411 ; skirt
G1 X90.679 Y72.892 E4.24207 ; skirt
G1 X91.251 Y72.703 E4.27003 ; skirt
G1 X91.831 Y72.541 E4.29798 ; skirt
G1 X92.419 Y72.406 E4.32595 ; skirt
G1 X93.012 Y72.299 E4.35391 ; skirt
G1 X93.609 Y72.220 E4.38186 ; skirt
G1 X94.210 Y72.168 E4.40983 ; skirt
G1 X94.812 Y72.146 E4.43779 ; skirt
G1 X95.415 Y72.151 E4.46575 ; skirt
G1 X96.017 Y72.184 E4.49371 ; skirt
G1 X96.969 Y72.296 E4.53819 ; skirt
G1 X97.581 Y72.406 E4.56702 ; skirt
G1 X98.169 Y72.541 E4.59498 ; skirt
G1 X98.749 Y72.703 E4.62294 ; skirt
G1 X99.321 Y72.892 E4.65090 ; skirt
G1 X99.884 Y73.108 E4.67886 ; skirt
G1 X100.436 Y73.350 E4.70682 ; skirt
G1 X100.976 Y73.618 E4.73478 ; skirt
G1 X101.699 Y74.027 E4.77330 ; skirt
G1 X102.206 Y74.353 E4.80126 ; skirt
G1 X102.697 Y74.703 E4.82922 ; skirt
G1 X103.171 Y75.075 E4.85718 ; skirt
G1 X103.627 Y75.469 E4.88514 ; skirt
G1 X104.064 Y75.884 E4.91310 ; skirt
G1 X104.482 Y76.318 E4.94106 ; skirt
G1 X104.878 Y76.772 E4.96902 ; skirt
G1 X105.253 Y77.244 E4.99698 ; skirt
G1 X105.605 Y77.734 E5.02494 ; skirt
G1 X105.934 Y78.239 E5.05290 ; skirt
G1 X106.239 Y78.759 E5.08086 ; skirt
G1 X106.681 Y79.631 E5.12621 ; skirt
G1 X106.920 Y80.184 E5.15417 ; skirt
G1 X107.132 Y80.748 E5.18213 ; skirt
G1 X107.318 Y81.321 E5.21009 ; skirt
G1 X107.477 Y81.903 E5.23805 ; skirt
G1 X107.609 Y82.491 E5.26601 ; skirt
G1 X107.712 Y83.085 E5.29397 ; skirt
G1 X107.788 Y83.683 E5.32193 ; skirt
G1 X107.836 Y84.284 E5.34989 ; skirt
G1 X107.855 Y84.886 E5.37785 ; skirt
G1 X107.847 Y85.489 E5.40581 ; skirt
G1 X107.809 Y86.090 E5.43377 ; skirt
G1 X107.744 Y86.690 E5.46173 ; skirt
G1 X107.651 Y87.285 E5.48969 ; skirt
G1 X107.477 Y88.097 E5.52820 ; skirt
G1 X107.318 Y88.679 E5.55617 ; skirt
G1 X107.132 Y89.252 E5.58413 ; skirt
G1 X106.920 Y89.816 E5.61208 ; skirt
G1 X106.681 Y90.369 E5.64005 ; skirt
G1 X106.416 Y90.911 E5.66801 ; skirt
G1 X105.944 Y91.745 E5.71249 ; skirt
G1 X105.605 Y92.266 E5.74132 ; skirt
G1 X105.253 Y92.756 E5.76928 ; skirt
G1 X104.878 Y93.228 E5.79724 ; skirt
G1 X104.482 Y93.682 E5.82520 ; skirt
G1 X104.064 Y94.116 E5.85316 ; skirt
G1 X103.627 Y94.531 E5.88112 ; skirt
G1 X103.171 Y94.925 E5.90908 ; skirt
G1 X102.697 Y95.297 E5.93704 ; skirt
G1 X102.206 Y95.647 E5.96500 ; skirt
G1 X101.699 Y95.973 E5.99296 ; skirt
G1 X101.177 Y96.275 E6.02092 ; skirt
G1 X100.436 Y96.650 E6.05943 ; skirt
G1 X99.884 Y96.892 E6.08739 ; skirt
G1 X99.321 Y97.108 E6.11536 ; skirt
G1 X98.749 Y97.297 E6.14332 ; skirt
G1 X98.169 Y97.459 E6.17128 ; skirt
G1 X97.581 Y97.594 E6.19924 ; skirt
G1 X96.988 Y97.701 E6.22719 ; skirt
G1 X96.390 Y97.780 E6.25516 ; skirt
G1 X95.790 Y97.832 E6.28312 ; skirt
G1 X95.188 Y97.854 E6.31108 ; skirt
G1 X94.210 Y97.832 E6.35643 ; skirt
G1 X93.610 Y97.780 E6.38439 ; skirt
G1 X93.012 Y97.701 E6.41235 ; skirt
G1 X92.419 Y97.594 E6.44031 ; skirt
G1 X91.831 Y97.459 E6.46827 ; skirt
G1 X91.251 Y97.297 E6.49623 ; skirt
G1 X90.678 Y97.108 E6.52420 ; skirt
G1 X89.906 Y96.804 E6.56271 ; skirt
G1 X89.358 Y96.552 E6.59067 ; skirt
G1 X88.823 Y96.275 E6.61863 ; skirt
G1 X88.301 Y95.973 E6.64659 ; skirt
G1 X87.794 Y95.647 E6.67455 ; skirt
G1 X87.303 Y95.297 E6.70251 ; skirt
G1 X86.829 Y94.925 E6.73047 ; skirt
G1 X86.373 Y94.531 E6.75843 ; skirt
G1 X85.936 Y94.116 E6.78639 ; skirt
G1 X85.518 Y93.682 E6.81435 ; skirt
G1 X85.122 Y93.228 E6.84231 ; skirt
G1 X84.736 Y92.740 E6.87114 ; skirt
G1 X84.187 Y91.954 E6.91562 ; skirt
G1 X83.873 Y91.439 E6.94358 ; skirt
G1 X83.584 Y90.911 E6.97154 ; skirt
G1 X83.319 Y90.369 E6.99950 ; skirt
G1 X83.080 Y89.816 E7.02746 ; skirt
G1 X82.868 Y89.252 E7.05543 ; skirt
G1 X82.682 Y88.679 E7.08338 ; skirt
G1 X82.523 Y88.097 E7.11134 ; skirt
G1 X82.391 Y87.509 E7.13930 ; skirt
G1 X82.288 Y86.915 E7.16726 ; skirt
G1 X82.212 Y86.317 E7.19522 ; skirt
G1 X82.164 Y85.716 E7.22318 ; skirt
G1 X82.145 Y85.114 E7.25114 ; skirt
G1 X82.153 Y84.511 E7.27910 ; skirt
G1 X82.191 Y83.910 E7.30706 ; skirt
G1 X82.256 Y83.310 E7.33502 ; skirt
G1 X82.349 Y82.715 E7.36298 ; skirt
G1 X82.470 Y82.124 E7.39095 ; skirt
G1 X82.682 Y81.321 E7.42946 ; skirt
G1 X82.868 Y80.748 E7.45742 ; skirt
G1 X83.080 Y80.184 E7.48538 ; skirt
G1 X83.319 Y79.631 E7.51334 ; skirt
G1 X83.584 Y79.089 E7.54130 ; skirt
G1 X83.873 Y78.561 E7.56925 ; skirt
G1 X84.187 Y78.046 E7.59722 ; skirt
G1 X84.525 Y77.547 E7.62518 ; skirt
G1 X84.886 Y77.064 E7.65314 ; skirt
G1 X85.478 Y76.363 E7.69571 ; skirt
G1 X86.052 Y76.793 F6000.000 ; move to first skirt point
G1 X86.447 Y76.382 E7.72212 F1080.000 ; skirt
G1 X86.860 Y75.991 E7.74852 ; skirt
G1 X87.291 Y75.619 E7.77493 ; skirt
G1 X87.739 Y75.268 E7.80134 ; skirt
G1 X88.203 Y74.939 E7.82774 ; skirt
G1 X88.682 Y74.631 E7.85415 ; skirt
G1 X89.175 Y74.347 E7.88056 ; skirt
G1 X89.681 Y74.085 E7.90697 ; skirt
G1 X90.378 Y73.773 E7.94238 ; skirt
G1 X90.909 Y73.568 E7.96879 ; skirt
G1 X91.449 Y73.389 E7.99519 ; skirt
G1 X91.997 Y73.235 E8.02160 ; skirt
G1 X92.552 Y73.108 E8.04801 ; skirt
G1 X93.112 Y73.006 E8.07441 ; skirt
G1 X93.676 Y72.931 E8.10081 ; skirt
G1 X94.244 Y72.882 E8.12723 ; skirt
G1 X94.812 Y72.860 E8.15363 ; skirt
G1 X95.382 Y72.864 E8.18004 ; skirt
G1 X95.950 Y72.895 E8.20645 ; skirt
G1 X96.869 Y73.003 E8.24938 ; skirt
G1 X97.448 Y73.108 E8.27665 ; skirt
G1 X98.003 Y73.235 E8.30306 ; skirt
G1 X98.551 Y73.389 E8.32947 ; skirt
G1 X99.091 Y73.568 E8.35587 ; skirt
G1 X99.622 Y73.773 E8.38228 ; skirt
G1 X100.144 Y74.002 E8.40869 ; skirt
G1 X100.653 Y74.255 E8.43510 ; skirt
G1 X101.318 Y74.631 E8.47051 ; skirt
G1 X101.797 Y74.939 E8.49691 ; skirt
G1 X102.261 Y75.268 E8.52332 ; skirt
G1 X102.709 Y75.619 E8.54973 ; skirt
G1 X103.140 Y75.991 E8.57614 ; skirt
G1 X103.553 Y76.383 E8.60254 ; skirt
G1 X103.948 Y76.793 E8.62895 ; skirt
G1 X104.323 Y77.221 E8.65536 ; skirt
G1 X104.677 Y77.667 E8.68176 ; skirt
G1 X105.010 Y78.129 E8.70817 ; skirt
G1 X105.321 Y78.605 E8.73458 ; skirt
G1 X105.610 Y79.096 E8.76099 ; skirt
G1 X106.036 Y79.938 E8.80478 ; skirt
G1 X106.262 Y80.461 E8.83119 ; skirt
G1 X106.462 Y80.994 E8.85760 ; skirt
G1 X106.637 Y81.536 E8.88400 ; skirt
G1 X106.787 Y82.085 E8.91041 ; skirt
G1 X106.910 Y82.641 E8.93682 ; skirt
G1 X107.008 Y83.202 E8.96323 ; skirt
G1 X107.079 Y83.766 E8.98963 ; skirt
G1 X107.123 Y84.334 E9.01604 ; skirt
G1 X107.141 Y84.903 E9.04245 ; skirt
G1 X107.133 Y85.472 E9.06885 ; skirt
G1 X107.097 Y86.040 E9.09526 ; skirt
G1 X107.035 Y86.606 E9.12167 ; skirt
G1 X106.947 Y87.168 E9.14807 ; skirt
G1 X106.787 Y87.915 E9.18348 ; skirt
G1 X106.637 Y88.464 E9.20989 ; skirt
G1 X106.462 Y89.006 E9.23630 ; skirt
G1 X106.262 Y89.539 E9.26270 ; skirt
G1 X106.036 Y90.062 E9.28912 ; skirt
G1 X105.787 Y90.573 E9.31552 ; skirt
G1 X105.514 Y91.073 E9.34193 ; skirt
G1 X105.218 Y91.559 E9.36833 ; skirt
G1 X104.899 Y92.031 E9.39474 ; skirt
G1 X104.559 Y92.487 E9.42115 ; skirt
G1 X103.948 Y93.207 E9.46495 ; skirt
G1 X103.553 Y93.617 E9.49135 ; skirt
G1 X102.995 Y94.138 E9.52676 ; skirt
G1 X102.558 Y94.503 E9.55317 ; skirt
G1 X102.104 Y94.846 E9.57958 ; skirt
G1 X101.635 Y95.169 E9.60599 ; skirt
G1 X101.151 Y95.468 E9.63240 ; skirt
G1 X100.653 Y95.745 E9.65880 ; skirt
G1 X100.144 Y95.998 E9.68521 ; skirt
G1 X99.623 Y96.227 E9.71161 ; skirt
G1 X99.091 Y96.432 E9.73802 ; skirt
G1 X98.551 Y96.611 E9.76443 ; skirt
G1 X98.003 Y96.765 E9.79084 ; skirt
G1 X97.448 Y96.892 E9.81725 ; skirt
G1 X96.888 Y96.994 E9.84365 ; skirt
G1 X96.324 Y97.069 E9.87006 ; skirt
G1 X95.756 Y97.118 E9.89647 ; skirt
G1 X95.188 Y97.140 E9.92287 ; skirt
G1 X94.244 Y97.118 E9.96667 ; skirt
G1 X93.676 Y97.069 E9.99308 ; skirt
G1 X93.112 Y96.994 E10.01949 ; skirt
G1 X92.552 Y96.892 E10.04589 ; skirt
G1 X91.997 Y96.765 E10.07230 ; skirt
G1 X91.449 Y96.611 E10.09871 ; skirt
G1 X90.909 Y96.432 E10.12512 ; skirt
G1 X90.199 Y96.152 E10.16053 ; skirt
G1 X89.681 Y95.915 E10.18693 ; skirt
G1 X89.175 Y95.653 E10.21334 ; skirt
G1 X88.682 Y95.369 E10.23975 ; skirt
G1 X88.203 Y95.061 E10.26615 ; skirt
G1 X87.739 Y94.732 E10.29256 ; skirt
G1 X87.291 Y94.381 E10.31897 ; skirt
G1 X86.860 Y94.009 E10.34538 ; skirt
G1 X86.447 Y93.617 E10.37178 ; skirt
G1 X86.052 Y93.207 E10.39819 ; skirt
G1 X85.677 Y92.779 E10.42460 ; skirt
G1 X85.323 Y92.333 E10.45100 ; skirt
G1 X84.990 Y91.871 E10.47741 ; skirt
G1 X84.679 Y91.395 E10.50382 ; skirt
G1 X84.390 Y90.904 E10.53022 ; skirt
G1 X84.117 Y90.383 E10.55750 ; skirt
G1 X83.738 Y89.539 E10.60043 ; skirt
G1 X83.538 Y89.006 E10.62684 ; skirt
G1 X83.363 Y88.464 E10.65324 ; skirt
G1 X83.213 Y87.915 E10.67965 ; skirt
G1 X83.090 Y87.359 E10.70606 ; skirt
G1 X82.992 Y86.798 E10.73246 ; skirt
G1 X82.921 Y86.234 E10.75887 ; skirt
G1 X82.877 Y85.666 E10.78528 ; skirt
G1 X82.859 Y85.097 E10.81169 ; skirt
G1 X82.867 Y84.528 E10.83809 ; skirt
G1 X82.903 Y83.960 E10.86450 ; skirt
G1 X82.965 Y83.394 E10.89091 ; skirt
G1 X83.053 Y82.832 E10.91731 ; skirt
G1 X83.168 Y82.274 E10.94373 ; skirt
G1 X83.363 Y81.536 E10.97913 ; skirt
G1 X83.538 Y80.994 E11.00554 ; skirt
G1 X83.738 Y80.461 E11.03195 ; skirt
G1 X83.964 Y79.938 E11.05835 ; skirt
G1 X84.213 Y79.427 E11.08476 ; skirt
G1 X84.486 Y78.927 E11.11116 ; skirt
G1 X84.782 Y78.441 E11.13758 ; skirt
G1 X85.101 Y77.969 E11.16398 ; skirt
G1 X85.441 Y77.513 E11.19039 ; skirt
G1 X86.012 Y76.838 E11.23140 ; skirt
G1 X86.586 Y77.268 F6000.000 ; move to first skirt point
G1 X86.957 Y76.882 E11.25626 F1080.000 ; skirt
G1 X87.347 Y76.514 E11.28111 ; skirt
G1 X87.753 Y76.164 E11.30597 ; skirt
G1 X88.175 Y75.834 E11.33082 ; skirt
G1 X88.612 Y75.524 E11.35567 ; skirt
G1 X89.063 Y75.235 E11.38053 ; skirt
G1 X89.528 Y74.968 E11.40538 ; skirt
G1 X90.004 Y74.722 E11.43024 ; skirt
G1 X90.491 Y74.499 E11.45509 ; skirt
G1 X90.988 Y74.300 E11.47994 ; skirt
G1 X91.494 Y74.123 E11.50480 ; skirt
G1 X92.163 Y73.930 E11.53710 ; skirt
G1 X92.685 Y73.809 E11.56196 ; skirt
G1 X93.212 Y73.713 E11.58681 ; skirt
G1 X93.743 Y73.642 E11.61166 ; skirt
G1 X94.277 Y73.595 E11.63652 ; skirt
G1 X94.812 Y73.574 E11.66138 ; skirt
G1 X95.348 Y73.578 E11.68623 ; skirt
G1 X95.883 Y73.607 E11.71108 ; skirt
G1 X96.416 Y73.660 E11.73594 ; skirt
G1 X96.965 Y73.743 E11.76166 ; skirt
G1 X97.837 Y73.930 E11.80304 ; skirt
G1 X98.353 Y74.075 E11.82789 ; skirt
G1 X98.861 Y74.244 E11.85274 ; skirt
G1 X99.361 Y74.437 E11.87760 ; skirt
G1 X99.851 Y74.653 E11.90245 ; skirt
G1 X100.331 Y74.892 E11.92731 ; skirt
G1 X100.937 Y75.235 E11.95961 ; skirt
G1 X101.388 Y75.524 E11.98447 ; skirt
G1 X101.825 Y75.834 E12.00932 ; skirt
